!!!!SEGMENT: pl-kk--kk-i-2--004-003_moulu-pierre--missa-i-alma-redemptoris-mater-credo.krn
!!!cenid: 16xx:1595
!!!COM: Moulu, Pierre
!!!COM-rismID:
!!!CDT: ~1484-~1550
!!!CNT: French
!!!OPR: Missa I [Alma redemptoris mater]
!!!OTL: Credo
!!!OMV: 003
!!!PDT:
!!!AGN: Sacred; Mass
!!!SMS-siglum: PL-Kk
!!!SMS-shelfmark: Kk.I.2
!!!SMS-shelfwork: 004-003 M
!!!NIFC-rismSourceID: 300258020
!!!NIFC-islandoraID: pl-kk:750
!!!URL-pdf-islandora: https://repozytorium.nifc.pl/islandora/object/pl-kk%3A750/datastream/PDF/view
!!!URL-scan: https://polish.musicsources.pl/pl/lokalizacje/galeria/rekopisy/5828 @EN{Scan on Polish Music Herritage in Open Access Website} @PL{Skany w portalu Dziedzictwo Muzyki Polskiej w otwartym dostępie}
!!!ONB-nifc: Części mszy: Kyrie, Gloria, Credo, Sanctus, Agnus Dei; skany: C: 0007-0008; A: 0107-0109; T: 0211-0212; B: 0311-0312;
!!!AIN: 1 alto 1 bass 1 soprn 1 tenor
!!!key:
**kern	**text	**kern	**text	**kern	**text	**text	**kern	**text
*part4	*part4	*part3	*part3	*part2	*part2	*	*part1	*part1
*staff4	*staff4	*staff3	*staff3	*staff2	*staff2	*	*staff1	*staff1
*I"BASVS	*	*I"TENOR	*	*I"ALTVS	*	*	*I"DISCANTVS	*
*I'B	*	*I'T	*	*I'A	*	*	*I'S	*
*Ibass	*	*Itenor	*	*Ialto	*	*	*Isoprn	*
*ICvox	*	*ICvox	*	*ICvox	*	*	*ICvox	*
*clefF3	*	*clefC3	*	*clefC3	*	*	*clefG2	*
*k[b-]	*	*k[b-]	*	*k[b-]	*	*	*k[b-]	*
*F:	*	*F:	*	*F:	*	*	*F:	*
*M2/1	*	*M2/1	*	*M2/1	*	*	*M2/1	*
*met(C|)	*	*met(C|)	*	*met(C|)	*	*	*met(C|)	*
=1-	=1-	=1-	=1-	=1-	=1-	=1-	=1-	=1-
*all\right	*	*all\right	*	*all\right	*	*	*all\right	*
!	!	!	!	!	!	!	!LO:TX:t=P:problem=większość rozdzielaczy słów w S i A to zaznaczenie podziału metrycznego na 2/1	!
1.F\	Pa-	1F/	Pa-	1.f\	Pa-	.	1f/	Pa-
.	.	2F/	-trem	.	.	.	2.a/	-trem
!LO:TX:t=P:problem=kreska pseudotaktowa	!	!	!	!	!	!	!	!
*	*	*	*	*2\right	*	*	*	*
2F/	-trem	2F/	om-	2f\,<	.	.	.	.
!	!	!	!	!	!	!	!LO:TX:t=P:problem=kreska pseudotaktowa	!
.	.	.	.	.	.	.	4b-/	om-
=2-	=2-	=2-	=2-	=2-	=2-	=2-	=2-	=2-
1.F\	om-	2.A/	-ni-	2f\	-trem	.	1.cc\	-ni-
.	.	.	.	4e\	.	.	.	.
.	.	4G/	-po-	4d\	.	.	.	.
.	.	4A/	.	2c/	om-	.	.	.
.	.	4B-/	.	.	.	.	.	.
*	*	*	*	*	*	*	*2\right	*
2E/	-ni-	1c\	-te(n)-	2e\,<	-ni-	.	2cc\,<	-po-
=3-	=3-	=3-	=3-	=3-	=3-	=3-	=3-	=3-
1D/	-po-	.	.	1f\	-po-	.	2dd\	-ten-
.	.	2B-/	.	.	.	.	1ff\	-tem
!LO:TX:t=P:problem=kreska pseudotaktowa	!	!	!	!	!	!	!	!
1C/	-ten-	1c\	-tem	1g\,<	-ten-	.	.	.
!	!	!	!	!	!	!	!LO:TX:t=P:problem=kreska pseudotaktowa	!
.	.	.	.	.	.	.	2ee\	fac-
=4-	=4-	=4-	=4-	=4-	=4-	=4-	=4-	=4-
1.F\	-tem	2r	.	2.f\	.	.	2.ff\,<	-to-
.	.	2c/	fac-	.	.	.	.	.
!	!	!	!	!	!	!	!LO:TX:t=P:problem=kreska pseudotaktowa	!
.	.	.	.	4g\	.	.	4ee\	.
*	*	*2\right	*	*	*	*	*	*
.	.	2.f\	-to-	1a\,<	-te(m)	.	2dd\	.
!LO:TX:t=P:problem=kreska pseudotaktowa	!	!	!	!	!	!	!	!
2F/	fac-	.	.	.	.	.	2.cc\,<	-re(m)
.	.	4e\	.	.	.	.	.	.
=5-	=5-	=5-	=5-	=5-	=5-	=5-	=5-	=5-
*2\right	*	*	*	*	*	*	*	*
2G\	-to-	2d\	-rem	2r	.	.	.	.
.	.	.	.	.	.	.	4b-/	.
2A\	-re(m)	1f\	cae-	2c/	fac-	.	1a/,<	ce-
1B-\	coe-	.	.	2d/	-to-	.	.	.
!	!	!	!	!	!	!	!LO:TX:t=P:problem=kreska pseudotaktowa	!
.	.	4e\	.	2e\,<	-re(m)	.	2g/	-li
.	.	4d\	.	.	.	.	.	.
=6-	=6-	=6-	=6-	=6-	=6-	=6-	=6-	=6-
2A\	-li	2c/	-li	4f\	ce-	.	2a/	et
.	.	.	.	4c/	.	.	.	.
!LO:TX:t=P:problem=kreska pseudotaktowa	!	!	!	!	!	!	!	!
2B-\	et	1d\	et	1f\	-li	.	2f/	.
1G\	ter-	.	.	.	.	.	1g/,<	ter-
.	.	4c/	ter-	2e\,<	et	.	.	.
.	.	4B-/	.	.	.	.	.	.
=7-	=7-	=7-	=7-	=7-	=7-	=7-	=7-	=7-
!LO:TX:t=P:problem=kreska pseudotaktowa	!	!	!	!	!	!	!LO:TX:t=P:problem=kreska pseudotaktowa	!
1F\	-re	2c/	-re	2.f\	t(er)-	.	0a/	-r(ae)
.	.	2F/	vi-	.	.	.	.	.
.	.	.	.	4e\	.	.	.	.
2r	.	2F/	-ſi-	2d\	.	.	.	.
1F\	vi-	1A/	-bi-	2c/,<	-re	.	.	.
=8-	=8-	=8-	=8-	=8-	=8-	=8-	=8-	=8-
.	.	.	.	2r	.	.	1.cc\	Vi-
!LO:TX:t=P:problem=kreska pseudotaktowa	!	!	!	!	!	!	!	!
2F/	-ſi-	2A/	-li-	1c\	vi-	.	.	.
2C/	-bi-	1G/	-um	.	.	.	.	.
2E/	-li-	.	.	2c/,<	-ſi-	.	2cc/,<	-ſi-
=9-	=9-	=9-	=9-	=9-	=9-	=9-	=9-	=9-
!LO:TX:t=P:problem=kreska pseudotaktowa	!	!	!	!	!	!	!	!
1D/	-u(m)	2r	.	2d\	-bi-	.	1f/	-bi-
.	.	1d\	om-	1f\	-li-	.	.	.
*custos:F	*	*	*	*	*	*	*	*
!	!	!	!	!	!	!	!LO:TX:t=P:problem=kreska pseudotaktowa	!
1G\	om-	.	.	.	.	.	1g/	-li-
*	*	*	*	*custos:e	*	*	*	*
.	.	4c/	-ni-	2e\	-um	.	.	.
.	.	4B-/	.	.	.	.	.	.
!LO:LB:g=original	!	!	!	!LO:LB:g=original	!	!	!	!
=10-	=10-	=10-	=10-	=10-	=10-	=10-	=10-	=10-
*	*	*custos:d	*	*	*	*	*	*
2F/	-ni-	1c\	.	2f\	om-	.	1a/	-u(m)
2A\	-um	.	.	2f\	-ni-	.	.	.
*	*	*	*	*	*	*	*custos:a	*
!LO:TX:t=P:problem=kreska pseudotaktowa	!	!LO:LB:g=original	!	!	!	!	!	!
1G\	.	2d/	-um	1d\,<	-u(m)	.	1b-\,<	om-
.	.	2B-/	.	.	.	.	.	.
!	!	!	!	!	!	!	!LO:PB:g=original	!
=11-	=11-	=11-	=11-	=11-	=11-	=11-	=11-	=11-
1F\	.	1c\	.	2r	.	.	2a/	-ni-
.	.	.	.	1f\	et	.	2f/	-um
2C/	et	1c\	et	.	.	.	2g/	et
!LO:TX:t=P:problem=kreska pseudotaktowa	!	!	!	!	!	!	!LO:TX:t=P:problem=kreska pseudotaktowa	!
2C/	in-	.	.	2e\,<	in-	.	2g/	in-
=12-	=12-	=12-	=12-	=12-	=12-	=12-	=12-	=12-
1.F\	-vi-	2c/	in-	4f\	-vi-	.	4a/	-vi-
.	.	.	.	4e\	-ſi-	.	4g/	-ſi-
.	.	2.A/	-vi-	4d\	-bi-	.	4f/	-bi-
.	.	.	.	4c/	-li-	.	4e/	-li-
.	.	.	.	2d\	-um	.	2f/	-um
.	.	4G/	-ſi-	.	.	.	.	.
2E/	-ſi-	1c\	-bi-	2G/,<	.	.	2.g/,<	.
=13-	=13-	=13-	=13-	=13-	=13-	=13-	=13-	=13-
2D/	-bi-	.	.	2A/	.	.	.	.
.	.	.	.	.	.	.	4f/	.
2D/	-li-	2B-/	-li-	2F/	.	.	1f/	.
!LO:TX:t=P:problem=kreska pseudotaktowa	!	!	!	!	!	!	!	!
1C/	-um	1c\	-um	1G/,<	.	.	.	.
.	.	.	.	.	.	.	2e/,<	.
=14-	=14-	=14-	=14-	=14-	=14-	=14-	=14-	=14-
!	!	!	!	!	!	!	!LO:TX:t=P:problem=kreska pseudotaktowa	!
2r	.	2r	.	2F/	.	.	1f/	.
2F/	et	2A/	et	2c/	et	.	.	.
2F/	in	2A/	in	2d\	in	.	2r	.
!LO:TX:t=P:problem=kreska pseudotaktowa	!	!	!	!	!	!	!	!
2E/	v-	2G/	u-	2e\,<	u-	.	2cc/,<	et
=15-	=15-	=15-	=15-	=15-	=15-	=15-	=15-	=15-
!	!	!	!	!	!	!	!LO:TX:t=P:problem=kreska pseudotaktowa	!
2D/	-nu(m)	2A/	-num	2f\	-nu(m)	.	1dd\	in
2.G\	do-	2.B-/	do-	2d\	d(o-	.	.	.
.	.	.	.	1g\,<	-mi)-	.	1ee\,<	u-
4F/	.	4A/	.	.	.	.	.	.
!LO:TX:t=P:problem=kreska pseudotaktowa	!	!	!	!	!	!	!	!
2E/	-mi-	4B-/	-mi-	.	.	.	.	.
.	.	4c/	.	.	.	.	.	.
=16-	=16-	=16-	=16-	=16-	=16-	=16-	=16-	=16-
!	!	!	!	!	!	!	!LO:TX:t=P:problem=kreska pseudotaktowa	!
2.D/	-num	2d\	-num	2.f\	-nu(m)	.	1ff\,<	-num
.	.	2.A/	.	.	.	.	.	.
4E/	.	.	.	8e\	.	.	.	.
.	.	.	.	8d\	.	.	.	.
2F/	.	.	.	1c\	.	.	1ff\	Je-
.	.	4G/	.	.	.	.	.	.
2F/	Je-	4A/	.	.	.	.	.	.
.	.	4B-/	.	.	.	.	.	.
=17-	=17-	=17-	=17-	=17-	=17-	=17-	=17-	=17-
!LO:TX:t=P:problem=kreska pseudotaktowa	!	!	!	!	!	!	!	!
1C/	-ſu(m)	2c/	.	2r	.	.	2.ee/	-ſu(m)
.	.	2G/	.	1c\	Je-	.	.	.
!	!	!	!	!	!	!	!LO:TX:t=P:problem=kreska pseudotaktowa	!
.	.	.	.	.	.	.	4dd/	.
2r	.	2r	.	.	.	.	2cc/	.
2G\	Chri-	1g\	Je-	2B-/,<	-ſu(m)	.	2.dd/,<	Chri-
=18-	=18-	=18-	=18-	=18-	=18-	=18-	=18-	=18-
1A\	-ſtu(m)	.	.	1c\	Chr(i-	.	.	.
.	.	.	.	.	.	.	4cc/	.
.	.	2f\	-ſu(m)	.	.	.	1cc\	.
*custos:c	*	*	*	*	*	*	*	*
!LO:TX:t=P:problem=kreska pseudotaktowa	!	!	!	!	!	!	!	!
1G\	fi-	2.g\	Chri-	1d\,<	.	.	.	.
.	.	.	.	.	.	.	2b-/,<	.
.	.	4f\	.	.	.	.	.	.
!LO:PB:g=original	!	!	!	!	!	!	!	!
=19-	=19-	=19-	=19-	=19-	=19-	=19-	=19-	=19-
!	!	!	!	!	!	!	!LO:TX:t=P:problem=kreska pseudotaktowa	!
2.c\	-li-	4e\	.	1c\	-stu)m	.	1cc\	-ſtum
.	.	4d\	.	.	.	.	.	.
.	.	2e\	.	.	.	.	.	.
4B-\	.	.	.	.	.	.	.	.
*	*	*	*	*custos:f	*	*	*	*
4A\	-u(m)	0c\	-ſtum	2r	.	.	2r	.
4G\	de-	.	.	.	.	.	.	.
!LO:TX:t=P:problem=kreska pseudotaktowa	!	!	!	!LO:LB:g=original	!	!	!	!
2A\	-i	.	.	2f\,<	fi-	.	1cc\,<	fi-
=20-	=20-	=20-	=20-	=20-	=20-	=20-	=20-	=20-
2F/	u-	.	.	2f\	-li-	.	.	.
!	!	!	!	!	!	!	!LO:TX:t=P:problem=kreska pseudotaktowa	!
1c\	.	.	.	1e\	-u(m)	.	2cc/	-li-
.	.	2r	.	.	.	.	2.g/	-u(m)
!LO:TX:t=P:problem=kreska pseudotaktowa	!	!	!	!	!	!	!	!
2c\	-ni-	1g\	fi-	4d\	de-	.	.	.
.	.	.	.	4c/,<	.	.	4a/	.
=21-	=21-	=21-	=21-	=21-	=21-	=21-	=21-	=21-
2.G\	.	.	.	2.B-/	-i	.	2b-/	De-
*	*	*custos:d	*	*	*	*	*custos:f	*
!	!	!	!	!	!	!	!LO:TX:t=P:problem=kreska pseudotaktowa	!
.	.	2g\	-li-	.	.	.	2b-/	-i
4A\	.	.	.	4c/	.	.	.	.
!	!	!LO:PB:g=original	!	!	!	!	!LO:LB:g=original	!
2B-\	.	2.d/	-um	4d\	.	.	2.f/	u-
.	.	.	.	4e\	.	.	.	.
2.F/	.	.	.	2f\,<	.	.	.	.
!	!	!	!	!	!	!	!LO:TX:t=P:problem=kreska pseudotaktowa	!
.	.	4e\	.	.	.	.	4g/	-ni-
=22-	=22-	=22-	=22-	=22-	=22-	=22-	=22-	=22-
.	.	2f\	de-	2.c/	u-	.	4a/	-ge-
4G\	.	.	.	.	.	.	4b-/	-ni-
4A\	.	2.c/	-i	.	.	.	2.cc\	-tum
!LO:TX:t=P:problem=kreska pseudotaktowa	!	!	!	!	!	!	!	!
4B-\	.	.	.	4d\	-ni-	.	.	.
2.c\	.	.	.	2.e\	-ge-	.	.	.
.	.	4d\	.	.	.	.	4b-/	.
.	.	4e\	.	.	.	.	4g/	.
!	!	!	!	!	!	!	!LO:TX:t=P:problem=kreska pseudotaktowa	!
4B-\	.	4f\	.	4d\,<	-ni-	.	4a/	.
=23-	=23-	=23-	=23-	=23-	=23-	=23-	=23-	=23-
4G\	.	2.g\	.	2B-/	-tu(m)	.	2.b-/	.
4A\	.	.	.	.	.	.	.	.
2.B-\	.	.	.	1d\	.	.	.	.
.	.	4f\	.	.	.	.	4a/	.
.	.	4d\	.	.	.	.	4f/	.
4A\	.	4e\	.	.	.	.	4g/	.
4F/	-ge-	2f\	.	2d\,<	.	.	4a/	.
!LO:TX:t=P:problem=kreska pseudotaktowa	!	!	!	!	!	!	!LO:TX:t=P:problem=kreska pseudotaktowa	!
4G\	-ni-	.	.	.	.	.	4b-/,<	.
=24-	=24-	=24-	=24-	=24-	=24-	=24-	=24-	=24-
2.A\	-tum.	2.F/	u-	4c/	.	.	2.cc\	.
.	.	.	.	4B-/	.	.	.	.
.	.	.	.	4A/	.	.	.	.
4B-\	.	4G/	-ni-	4G/	.	.	4b-/	.
!LO:TX:t=P:problem=kreska pseudotaktowa	!	!	!	!	!	!	!	!
1c\	.	2.A/	-ge-	1F/,<	.	.	4a/	.
.	.	.	.	.	.	.	4g/,<	.
.	.	.	.	.	.	.	1f/	.
.	.	4B-/	-ni-	.	.	.	.	.
=25-	=25-	=25-	=25-	=25-	=25-	=25-	=25-	=25-
1C/	et	1c\	-tum	1G/	.	.	.	.
!	!	!	!	!	!	!	!LO:TX:t=P:problem=kreska pseudotaktowa	!
.	.	.	.	.	.	.	2e/	.
1D/	ex	2A/	.	1F/,<	.	.	2f,</	.
.	.	2B-/	.	.	.	.	2ff\	et
=26-	=26-	=26-	=26-	=26-	=26-	=26-	=26-	=26-
!LO:TX:t=P:problem=kreska pseudotaktowa	!	!	!	!	!	!	!	!
1C/	p(at)-	1c\	et	2r	.	.	2ff\	ex
!	!	!	!	!	!	!	!LO:TX:t=P:problem=kreska pseudotaktowa	!
.	.	.	.	2G/	et	.	2ee\	p(a-
2.F/	-re	1A/	ex	2F/	ex	.	1.ff\	-t)re
.	.	.	.	2c/,<	p(at)-	.	.	.
*custos:D	*	*	*	*	*	*	*	*
!LO:TX:t=P:problem=kreska pseudotaktowa	!	!	!	!	!	!	!	!
4E/	na	.	.	.	.	.	.	.
!LO:LB:g=original	!	!	!	!	!	!	!	!
=27-	=27-	=27-	=27-	=27-	=27-	=27-	=27-	=27-
2D/	tu(m)	2B-/	p(at)-	2d\	-re	.	.	.
*	*	*	*	*custos:c	*	*	*	*
2C/	.	2c/	-re	2e\	na-	.	2.ee\	.
!	!	!	!	!LO:LB:g=original	!	!	!	!
*	*	*	*	*lig	*	*	*	*
2r	.	2.A/	na-	1c\,<	.	.	.	.
.	.	.	.	.	.	.	4dd\	.
1F\	.	.	.	.	.	.	1cc\,<	na-
.	.	4G/	.	.	.	.	.	.
=28-	=28-	=28-	=28-	=28-	=28-	=28-	=28-	=28-
.	.	2A/	.	1d\	.	.	.	.
*	*	*	*	*Xlig	*	*	*	*
!LO:TX:t=P:problem=kreska pseudotaktowa	!	!	!	!	!	!	!	!
2G\	.	2B-/	-tum	.	.	.	2b-/	.
!	!	!	!	!	!	!	!LO:TX:t=P:problem=kreska pseudotaktowa	!
1C/,<	.	0G/	an-	1c\,<	-tu(m)	.	1cc\	-tum
=29-	=29-	=29-	=29-	=29-	=29-	=29-	=29-	=29-
2r	.	.	.	1c\	A(n-	.	2r	.
!LO:TX:t=P:problem=kreska pseudotaktowa	!	!	!	!	!	!	!	!
2C/	an-	.	.	.	.	.	2cc\	an-
2G\	-te	2B-/	-(te)	2g\	-te)	.	2dd\	-te
!	!	!	!	!	!	!	!LO:TX:t=P:problem=kreska pseudotaktowa	!
1A\	om-	1c\	o(m-	2e\,<	om-	.	2cc\	om-
=30-	=30-	=30-	=30-	=30-	=30-	=30-	=30-	=30-
.	.	.	.	2f\	-ni-	.	2a/	-ni-
*	*	*	*	*	*	*	*custos:b	*
!LO:TX:t=P:problem=kreska pseudotaktowa	!	!	!	!	!	!	!	!
2F\	-ni-	2A/	-n)i-	2f\	-a	.	2cc\	-a
!	!	!	!	!	!	!	!LO:LB:g=original	!
2G\	-a	2B-/	-a	2d\	se-	.	2b-/,<	ſe-
2A\	ſe-	2c/	.	1f\	-cu-	.	1a/	-cu-
=31-	=31-	=31-	=31-	=31-	=31-	=31-	=31-	=31-
1B-\	-cu-	2d/	ſe-	.	.	.	.	.
.	.	2d/	-cu-	2e\	-la	.	2g/	.
!LO:TX:t=P:problem=kreska pseudotaktowa	!	!	!	!	!	!	!LO:TX:t=P:problem=kreska pseudotaktowa	!
1A\	-la	1c\	-la	2f\	de-	.	1a/,<	-la
.	.	.	.	2c/,<	-um	.	.	.
=32-	=32-	=32-	=32-	=32-	=32-	=32-	=32-	=32-
2D/	De-	2r	.	2d\	de	.	2f/	De-
*	*	*custos:b	*	*	*	*	*	*
2D/	-u(m)	2A/	de-	2d\	de-	.	2f/	-u(m)
!	!	!LO:LB:g=original	!	!	!	!	!	!
2G\	de	2B-/	-um	1e\,<	-o	.	2g/,<	de
!	!	!	!	!	!	!	!LO:TX:t=P:problem=kreska pseudotaktowa	!
2G\	de-	2B-/	de	.	.	.	2g/	de-
=33-	=33-	=33-	=33-	=33-	=33-	=33-	=33-	=33-
!LO:TX:t=P:problem=kreska pseudotaktowa	!	!	!	!	!	!	!	!
1F\	-o	2c/	de-	2.f\	lu-	.	2.a/	-o
.	.	2A/	-o	.	.	.	.	.
.	.	.	.	4f\	-men	.	4a/	lu-
2r	.	2r	.	2e\	de	.	2g/	-m(en)
!	!	!	!	!	!	!	!LO:TX:t=P:problem=kreska pseudotaktowa	!
2F/	lu-	2c/	lu-	2f\,<	.	.	2a/	de
=34-	=34-	=34-	=34-	=34-	=34-	=34-	=34-	=34-
2G\	-m(en)	2.B-/	-m(en)	2d\	lu-	.	2b-/	lu-
!LO:TX:t=P:problem=kreska pseudotaktowa	!	!	!	!	!	!	!	!
2G\	de	.	.	2e\	-mi-	.	2g/	-mi-
.	.	4B-/	de	.	.	.	.	.
!	!	!	!	!	!	!	!LO:TX:t=P:problem=kreska pseudotaktowa	!
2.F/	lu-	2c/	lu-	1f\,<	-ne	.	1a/	-ne
.	.	2c/	-mi-	.	.	.	.	.
4E/	-mi-	.	.	.	.	.	.	.
=35-	=35-	=35-	=35-	=35-	=35-	=35-	=35-	=35-
2D/	-ne	1d\	-ne	2r	.	.	2r	.
2G\	De-	.	.	2d\	de-	.	2g/	de-
2F,</	-u(m)	2r	.	2f\	-u(m)	.	2a/	-u(m)
*custos:F	*	*	*	*	*	*	*	*
!LO:TX:t=P:problem=kreska pseudotaktowa	!	!	!	!	!	!	!	!
!	!	!	!	!	!	!	!LO:TX:t=P:problem=kreska pseudotaktowa	!
2D/	ve-	2d\	De-	2.F/,<	ve-	.	2f/	ve-
!LO:LB:g=original	!	!	!	!	!	!	!	!
=36-	=36-	=36-	=36-	=36-	=36-	=36-	=36-	=36-
2.F/	-rum	2c/	.	.	.	.	2.a/	-rum
.	.	.	.	4G/	.	.	.	.
.	.	2A/	-u(m)	1A/	-ru(m)	.	.	.
4E/	.	.	.	.	.	.	4g/	.
2C/	.	2c/	ve-	.	.	.	2e/	de
!LO:TX:t=P:problem=kreska pseudotaktowa	!	!	!	!	!	!	!LO:TX:t=P:problem=kreska pseudotaktowa	!
2G\	de	2B-/	.	2G/,<	de	.	2g/	.
=37-	=37-	=37-	=37-	=37-	=37-	=37-	=37-	=37-
2.D/	de-	1d\	-ru(m)	2B-/	de-	.	2f/	de-
*	*	*	*	*custos:F	*	*	*	*
.	.	.	.	2A/	-o	.	2.a/	-o
4E/	-o	.	.	.	.	.	.	.
!	!	!	!	!LO:LB:g=original	!	!	!	!
1F\	ve-	1c\	de	2F/	ve-	.	.	.
.	.	.	.	.	.	.	4g/,<	.
.	.	.	.	2A/,<	.	.	1f/	ve-
=38-	=38-	=38-	=38-	=38-	=38-	=38-	=38-	=38-
!LO:TX:t=P:problem=kreska pseudotaktowa	!	!	!	!	!	!	!	!
1C/	-ro	2c/	de-	1G/	.	.	.	.
.	.	4B-/	-o	.	.	.	2e/	.
.	.	4c/	.	.	.	.	.	.
!	!	!	!	!	!	!	!LO:TX:t=P:problem=kreska pseudotaktowa	!
2r	.	2d\	ve-	2F/	-ro	.	1f/	-ro
1F\	Ge-	2c/	-ro	1f\,<	ge-	.	.	.
=39-	=39-	=39-	=39-	=39-	=39-	=39-	=39-	=39-
.	.	2r	.	.	.	.	2r	.
2F/	-ni-	1c\	Ge-	2f\	-ni-	.	1cc\	Ge-
2A\	-tum	.	.	2e\	-tu(m)	.	.	.
!LO:TX:t=P:problem=kreska pseudotaktowa	!	!	!	!	!	!	!LO:TX:t=P:problem=kreska pseudotaktowa	!
2A\	n(on)	2c/	-ni-	2f\,<	n(on)	.	2cc\,<	-ni-
=40-	=40-	=40-	=40-	=40-	=40-	=40-	=40-	=40-
2.G\	fac-	2e\	-tu(m)	1g\	fac-	.	2.b-/	-tu(m)
.	.	2e\	n(on)	.	.	.	.	.
*	*	*	*	*	*	*	*custos:dd	*
!	!	!	!	!	!	!	!LO:TX:t=P:problem=kreska pseudotaktowa	!
4A\	.	.	.	.	.	.	4cc/	non
!LO:TX:t=P:problem=kreska pseudotaktowa	!	!	!	!	!	!	!LO:LB:g=original	!
1B-\	-ctu(m)	2.d\	fac-	1f\,<	-tu(m)	.	2dd\	.
.	.	.	.	.	.	.	2dd\,<	fa-
.	.	4e\	.	.	.	.	.	.
=41-	=41-	=41-	=41-	=41-	=41-	=41-	=41-	=41-
!	!	!	!	!	!	!	!LO:TX:t=P:problem=kreska pseudotaktowa	!
2A,<\	.	1f\	-tu(m)	2r	.	.	1cc\	-ctu(m)
!LO:TX:t=P:problem=kreska pseudotaktowa	!	!	!	!	!	!	!	!
2F/	Con-	.	.	2f\	con-	.	.	.
2F/	-ſub-	2r	.	2f\	-ſub-	.	2r	.
2F/	-ſtan-	2c/	co(n)-	2f\,<	-stan-	.	2cc\,<	Con-
=42-	=42-	=42-	=42-	=42-	=42-	=42-	=42-	=42-
2A\	-ci-	2c/	-ſub-	2e\	-ti-	.	2cc\	-ſub-
!LO:TX:t=P:problem=kreska pseudotaktowa	!	!	!	!	!	!	!LO:TX:t=P:problem=kreska pseudotaktowa	!
2A\	-a-	2c/	-ſt(an)-	2f\	-a-	.	2cc\	-ſta(n)-
2.G\	-lem	2e\	-ti-	2g\	-le(m)	.	2.b-/	-ti-
.	.	2e\	-a-	2g\,<	p(at)-	.	.	.
4A\	.	.	.	.	.	.	4cc\,<	-a-
=43-	=43-	=43-	=43-	=43-	=43-	=43-	=43-	=43-
*	*	*custos:e	*	*	*	*	*	*
2B-\	.	1d\	-lem	2.f\	-ri	.	2dd\	-le(m)
2B-\	pa-	.	.	.	.	.	2dd\	p(a-
.	.	.	.	4g\	.	.	.	.
*custos:F	*	*	*	*	*	*	*	*
!LO:TX:t=P:problem=kreska pseudotaktowa	!	!	!	!	!	!	!	!
!	!	!LO:LB:g=original	!	!	!	!	!LO:TX:t=P:problem=kreska pseudotaktowa	!
1A\	-tri	2e\	pa-	1a\,<	.	.	1cc\	-t)ri
.	.	2f\	-tri	.	.	.	.	.
!LO:LB:g=original	!	!	!	!	!	!	!	!
=44-	=44-	=44-	=44-	=44-	=44-	=44-	=44-	=44-
1F\	per-	2r	.	2r	.	.	2r	.
.	.	2c/	per	2f\	per	.	2a/	per
2F/	-que(m)	2.f\	.	2.a\	que(m)	.	2.cc\	que(m)
!LO:TX:t=P:problem=kreska pseudotaktowa	!	!	!	!	!	!	!	!
2F/	o-	.	.	.	.	.	.	.
!	!	!	!	!	!	!	!LO:TX:t=P:problem=kreska pseudotaktowa	!
.	.	4e\	.	4a\	o(m-	.	4cc\	o-
=45-	=45-	=45-	=45-	=45-	=45-	=45-	=45-	=45-
2G\	-mni-	2d\	que(m)	2g\	-n)i-	.	2b-/	-(mn)i-
2A\	-a	2c/	om-	2f\	-a	.	2a/	-a
2B-\	fac-	2d\	-(n)i-	2d\	fac-	.	2f/	fac-
2G\	ta	2B-/	-a	2e\,<	-ta	.	2g/,<	-ta
=46-	=46-	=46-	=46-	=46-	=46-	=46-	=46-	=46-
!LO:TX:t=P:problem=kreska pseudotaktowa	!	!	!	!	!	!	!LO:TX:t=P:problem=kreska pseudotaktowa	!
1F\	ſ(un)t	2c/	fac-	1f\	ſunt	.	0a/	ſunt
.	.	4d\	-ta	.	.	.	.	.
.	.	4e\	.	.	.	.	.	.
2r	.	1f\	sv(n)t	2d\	qui	.	.	.
*	*	*	*	*custos:c	*	*	*	*
1F\	Qui	.	.	2d\	prop-	.	.	.
!	!	!	!	!LO:PB:g=original	!	!	!	!
=47-	=47-	=47-	=47-	=47-	=47-	=47-	=47-	=47-
.	.	2r	.	2.c/	-ter	.	2a/	q(ui)
!LO:TX:t=P:problem=kreska pseudotaktowa	!	!	!	!	!	!	!	!
2F/	pro-	1c\	Qui	.	.	.	2a/	pro-
.	.	.	.	4d/	nos	.	.	.
2E/	-p(ter)	.	.	2e\	ho-	.	2.g/	-pt(er)
!	!	!	!	!LO:SIC:v:l:s=-mi-	!	!	!	!
2C/	nos	2c/	pro-	2e\,<	-i-	.	.	.
.	.	.	.	.	.	.	4a/,<	nos
=48-	=48-	=48-	=48-	=48-	=48-	=48-	=48-	=48-
2G\	ho-	2B-/	-p(ter)	1d\	-(nes)	.	2b-/	ho-
2G\	-(mi)-	2G/	nos	.	.	.	2b-/	-(mi)-
!LO:TX:t=P:problem=kreska pseudotaktowa	!	!	!	!	!	!	!LO:TX:t=P:problem=kreska pseudotaktowa	!
1F\	-nes	2d\	ho-	2r	.	.	1a/	-neſ
.	.	2d\	-(m)i-	2f\,<	et	.	.	.
=49-	=49-	=49-	=49-	=49-	=49-	=49-	=49-	=49-
2r	.	1c\	-(n)eſ	2f\	pro-	.	2r	.
2F/	et	.	.	2f\	-pt(er)	.	2a/	et
2F/	pro-	2r	.	2.c/	n(os-	.	2a/	pro-
!LO:TX:t=P:problem=kreska pseudotaktowa	!	!	!	!	!	!	!	!
2F/	-p(ter)	2c/	et	.	.	.	2a/,<	-pt(er)
.	.	.	.	4d/,<	-t)ram	.	.	.
=50-	=50-	=50-	=50-	=50-	=50-	=50-	=50-	=50-
2E/	n(os-	2c/	pro-	2e\	sa-	.	2.g/	n(o-
2C/	-t)ram	2c/	-p(ter)	2e\	-lu-	.	.	.
!	!	!	!	!	!	!	!LO:TX:t=P:problem=kreska pseudotaktowa	!
.	.	.	.	.	.	.	4a/	-st)ram
2G\	ſa-	2B-/	n(ost)-	1d\,<	-te(m)	.	2b-/	ſa-
*	*	*	*	*	*	*	*custos:a	*
!LO:TX:t=P:problem=kreska pseudotaktowa	!	!	!	!	!	!	!	!
2G\	-lu-	2G/	.	.	.	.	2b-/	-lv-
!	!	!	!	!	!	!	!LO:LB:g=original	!
=51-	=51-	=51-	=51-	=51-	=51-	=51-	=51-	=51-
!	!	!	!	!	!	!	!LO:TX:t=P:problem=kreska pseudotaktowa	!
2F/	.	2.A/	-ram	2r	.	.	1a/	-tem
4E/	.	.	.	2f\	deſ-	.	.	.
4D/	.	4B-/	.	.	.	.	.	.
!LO:TX:t=P:problem=kreska pseudotaktowa	!	!	!	!	!	!	!	!
1C/	-tem	2c/	ſa-	2e\	-cen-	.	2r	.
.	.	2G/	-lu-	2e\,<	-dit	.	2cc\,<	de-
=52-	=52-	=52-	=52-	=52-	=52-	=52-	=52-	=52-
2r	.	1B-/	-te(m)	2.d\	de	.	2b-/	-ſce(n)-
*custos:F	*	*	*	*	*	*	*	*
!	!	!	!	!	!	!	!LO:TX:t=P:problem=kreska pseudotaktowa	!
2G\	de-	.	.	.	.	.	2g/	-dit
.	.	.	.	4e\	.	.	.	.
!LO:LB:g=original	!	!	!	!	!	!	!	!
2F/	-ſcen-	2A/	de-	1f\,<	cae-	.	2a/	de
2D/	-dit	2F/	.	.	.	.	2a/,<	cae-
=53-	=53-	=53-	=53-	=53-	=53-	=53-	=53-	=53-
!	!	!	!	!	!	!	!LO:TX:t=P:problem=kreska pseudotaktowa	!
2E/	de	2.G/	-ſc(en)-	1e\	-lis	.	0g/	-lis
2C/	.	.	.	.	.	.	.	.
*	*	*custos:b	*	*	*	*	*	*
.	.	4A/	-dit	.	.	.	.	.
*lig	*	*	*	*	*	*	*	*
!	!	!LO:LB:g=original	!	!	!	!	!	!
1G\	ce-	1B-/	de	2r	.	.	.	.
.	.	.	.	2e\,<	Et	.	.	.
=54-	=54-	=54-	=54-	=54-	=54-	=54-	=54-	=54-
!LO:TX:t=P:problem=kreska pseudotaktowa	!	!	!	!	!	!	!	!
1F\	.	1.c\	Ce-	2.f\	in-	.	2r	.
*Xlig	*	*	*	*	*	*	*	*
.	.	.	.	.	.	.	2a/	e(t)
.	.	.	.	4f\	-car-	.	.	.
!LO:TX:t=P:problem=kreska pseudotaktowa	!	!	!	!	!	!	!	!
0C/	-lis	.	.	2e\	-na-	.	2.cc\	in-
.	.	4B-/	.	2c/,<	-t(us)	.	.	.
!	!	!	!	!	!	!	!LO:TX:t=P:problem=kreska pseudotaktowa	!
.	.	4A/	.	.	.	.	4cc\	-car-
=55-	=55-	=55-	=55-	=55-	=55-	=55-	=55-	=55-
.	.	1G/	-lis	1e\	eſt	.	2cc\	-na-
.	.	.	.	.	.	.	2cc\	-t(us)
2r	.	2r	.	2r	.	.	2b-/	eſt
!	!	!	!	!	!	!	!LO:TX:t=P:problem=kreska pseudotaktowa	!
2C/	et	2g\	Et	2e\,<	de	.	2g/	de
=56-	=56-	=56-	=56-	=56-	=56-	=56-	=56-	=56-
2G\	in-	2g\	in	2d\	ſpi-	.	2b-/	Spi-
*	*	*	*	*custos:c	*	*	*	*
!LO:TX:t=P:problem=kreska pseudotaktowa	!	!	!	!	!	!	!	!
2G\	-car-	2g\	car-	2d\	-ri-	.	2b-/	-(ri-
!	!	!	!	!LO:LB:g=original	!	!	!	!
2A\	-na-	2e\	-na-	2c/	-tu	.	2.a/	-tu)
2A\	-tus	2c/	-t(us)	1f\	San-	.	.	.
!	!	!	!	!	!	!	!LO:TX:t=P:problem=kreska pseudotaktowa	!
.	.	.	.	.	.	.	4g/	.
=57-	=57-	=57-	=57-	=57-	=57-	=57-	=57-	=57-
2F/	eſt	1c\	eſt	.	.	.	4a/	San-
.	.	.	.	.	.	.	4b-/	.
!LO:TX:t=P:problem=kreska pseudotaktowa	!	!	!	!	!	!	!	!
2F/	de	.	.	2e\	.	.	1cc\	.
1G\	ſpi-	1g\	de	1d\	-cto	.	.	.
.	.	.	.	.	.	.	2b-/,<	.
=58-	=58-	=58-	=58-	=58-	=58-	=58-	=58-	=58-
!	!	!	!	!	!	!	!LO:TX:t=P:problem=kreska pseudotaktowa	!
2A\	-ri-	2f\	Spi-	2.c/	.	.	0cc\	-cto
2.c\	-to	2.e\	-(ri-	.	.	.	.	.
.	.	.	.	4B-/	.	.	.	.
.	.	.	.	1A/	.	.	.	.
4B-\	.	4d\	-tu)	.	.	.	.	.
!LO:TX:t=P:problem=kreska pseudotaktowa	!	!	!	!	!	!	!	!
2A\	San-	1f\	Sa(n)-	.	.	.	.	.
=59-	=59-	=59-	=59-	=59-	=59-	=59-	=59-	=59-
1G\	-cto	.	.	2r	.	.	1g/	Ex
.	.	2e\	.	2B-/	Ex	.	.	.
!LO:TX:t=P:problem=kreska pseudotaktowa	!	!	!	!	!	!	!	!
1F\	.	1f\	-cto.	1c\	ma-	.	1.a/,<	Ma-
=60-	=60-	=60-	=60-	=60-	=60-	=60-	=60-	=60-
2r	.	2c/	Ex	1A/	-ri-	.	.	.
!	!	!	!	!	!	!	!LO:TX:t=P:problem=kreska pseudotaktowa	!
2F/	Ex	1d\	Ma-	.	.	.	2a/	-ri-
!	!	!	!	!	!	!	!LO:TX:t=P:problem=kreska pseudotaktowa	!
1G\	Ma-	.	.	2G/	-a	.	1cc\	-a
.	.	2e\	-ri-	2.g\	vir-	.	.	.
=61-	=61-	=61-	=61-	=61-	=61-	=61-	=61-	=61-
2A\	-ri-	2c/	-a	.	.	.	1.a/	vir-
.	.	.	.	4f\	-gi-	.	.	.
!LO:TX:t=P:problem=kreska pseudotaktowa	!	!	!	!	!	!	!	!
2F/	-a	2.d\	Vir-	1f\	-ne	.	.	.
1.G\	vir-	.	.	.	.	.	.	.
.	.	4c/	.	.	.	.	.	.
.	.	4B-/	.	4e\	.	.	4g/	-gi-
.	.	4A/	.	4d\	.	.	4f/,<	.
=62-	=62-	=62-	=62-	=62-	=62-	=62-	=62-	=62-
.	.	1B-/	-gi-	1e\	.	.	1g/	.
*custos:F	*	*	*	*	*	*	*	*
!LO:TX:t=P:problem=kreska pseudotaktowa	!	!	!	!	!	!	!	!
2G/	-gi-	.	.	.	.	.	.	.
*	*	*	*	*	*	*	*custos:g	*
!LO:PB:g=original	!	!	!	!	!	!	!LO:TX:t=P:problem=kreska pseudotaktowa	!
!LO:TX:t=P:problem=kreska pseudotaktowa	!	!	!	!	!	!	!	!
0F\	-ne	2.A/	-ne	1f\	.	.	0a/,<	-ne
.	.	4B-/	.	.	.	.	.	.
=63-	=63-	=63-	=63-	=63-	=63-	=63-	=63-	=63-
.	.	1c\	.	2r	.	.	.	.
.	.	.	.	2f\	et	.	.	.
!	!	!	!	!	!	!	!LO:PB:g=original	!
0C/	et	2r	.	2.e\	ho-	.	0g/	Et
.	.	2G/	Et	.	.	.	.	.
.	.	.	.	4d\	.	.	.	.
=64-	=64-	=64-	=64-	=64-	=64-	=64-	=64-	=64-
.	.	1.c\	Ho-	1e\	-mo	.	.	.
1.F\	ho-	.	.	2.A/	fac-	.	1.a/,<	ho-
.	.	2c/	-mo	.	.	.	.	.
.	.	.	.	4F/	.	.	.	.
=65-	=65-	=65-	=65-	=65-	=65-	=65-	=65-	=65-
*	*	*custos:b	*	*	*	*	*	*
.	.	1d\	fac-	1.f\	-tus	.	.	.
!LO:TX:t=P:problem=kreska pseudotaktowa	!	!	!	!	!	!	!LO:TX:t=P:problem=kreska pseudotaktowa	!
2F/	-mo	.	.	.	.	.	2a/	-mo
!	!	!LO:LB:g=original	!	!	!	!	!	!
1G\	fac-	1B-/	-tus	.	.	.	1g/,<	fac-
.	.	.	.	4e\	.	.	.	.
.	.	.	.	4d\	.	.	.	.
=66-	=66-	=66-	=66-	=66-	=66-	=66-	=66-	=66-
1E/	.	1c\	eſt	1e\	.	.	1g/	-tus
*	*	*	*	*custos:e	*	*	*	*
!LO:TX:t=P:problem=kreska pseudotaktowa	!	!	!	!	!	!	!LO:TX:t=P:problem=kreska pseudotaktowa	!
1F\	-tus	2r	.	1A/	eſt	.	1f/	eſt
*	*	*	*ij	*	*	*	*	*
.	.	2A/	Et	.	.	.	.	.
!	!	!	!	!LO:LB:g=original	!	!	!	!
=67-	=67-	=67-	=67-	=67-	=67-	=67-	=67-	=67-
*	*	*	*	*	*ij	*	*	*
0C/	eſt.	1.c\	Ho-	2.e\	et	.	2r	.
.	.	.	.	.	.	.	1cc\	Et
.	.	.	.	4f\	.	.	.	.
.	.	.	.	2g\	ho-	.	.	.
!	!	!	!	!	!	!	!LO:TX:t=P:problem=kreska pseudotaktowa	!
.	.	2c/	-mo	1a\	-mo	.	2cc/	ho-
=68-	=68-	=68-	=68-	=68-	=68-	=68-	=68-	=68-
*	*ij	*	*	*	*	*	*	*
2F/	et	2d\	fac-	.	.	.	2a/	-mo
2A\	ho-	1c\	.	2f\	fa-	.	2a/	fa-
2G\	-mo	.	.	1g\	-ctus	.	1b-\,<	.
!LO:TX:t=P:problem=kreska pseudotaktowa	!	!	!	!	!	!	!	!
2G\	fac-	2B-/	.	.	.	.	.	.
=69-	=69-	=69-	=69-	=69-	=69-	=69-	=69-	=69-
*	*	*	*	*	*	*	*lig	*
2C/	.	2.c/	.	1e\	eſt	.	1g/	.
2.c\	.	.	.	.	.	.	.	.
.	.	4d\	.	.	.	.	.	.
.	.	2e\	.	2r	.	.	1.cc\,<	.
*	*	*	*	*	*	*	*Xlig	*
4B-\	.	.	.	.	.	.	.	.
4A\	.	2.f\	.	2c/	et	.	.	.
!LO:TX:t=P:problem=kreska pseudotaktowa	!	!	!	!	!	!	!	!
4G\	.	.	.	.	.	.	.	.
=70-	=70-	=70-	=70-	=70-	=70-	=70-	=70-	=70-
2F/	.	.	.	2c/	ho-	.	.	.
.	.	4e\	.	.	.	.	.	.
2A\	.	4d\	.	2c/	-mo	.	4b-/	.
.	.	4c/	.	.	.	.	4a/	.
1G\	-tus	1d\	-ctus	1.g\	fa-	.	1g/,<	-ctus
=71-	=71-	=71-	=71-	=71-	=71-	=71-	=71-	=71-
!LO:TX:t=P:problem=kreska pseudotaktowa	!	!	!	!	!	!	!	!
0C/l	eſt.	0c\l	eſt	.	.	.	0cc\l	eſt
.	.	.	.	2e\	-ctus	.	.	.
.	.	.	.	1e\l	eſt	.	.	.
!LO:LB:g=original	!	!	!	!	!	!	!	!
*clefF4	*Xij	*	*Xij	*	*Xij	*	*	*
=72||	=72||	=72||	=72||	=72||	=72||	=72||	=72||	=72||
*	*	*	*	*	*	*	*met(C|)	*
!LO:TX:t=P:problem=Czesc zapisana na prawej karcie na dole	!	!	!	!	!	!	!	!
!LO:TX:a:t=Crucifixus [tekst nieczytelny]	!	!LO:TX:a:t=Crucifixus Tacet	!	!	!	!	!LO:TX:t=DVO	!
*all\left	*	*	*	*	*	*	*	*
0r	.	0ryy	.	1r	.	.	1cc\	Cru-
.	.	.	.	1f\	Cru-	.	1dd\,<	-ci-
=73-	=73-	=73-	=73-	=73-	=73-	=73-	=73-	=73-
1G\	Cru-	0ryy	.	1g\	-ci-	.	1cc\	-fi-
!	!	!	!	!	!	!	!LO:TX:t=P:problem=kreska pseudotaktowa	!
1A\	-ci-	.	.	1f\	-fi-	.	1f/	-xus
=74-	=74-	=74-	=74-	=74-	=74-	=74-	=74-	=74-
1G\	-fix-	0ryy	.	1d\	-xus	.	2b-/	e-
.	.	.	.	.	.	.	2b-/	-ci-
1C/	-(us)	.	.	2.c/	.	.	2.a/	-am
.	.	.	.	8d\L	.	.	4b-/,<	.
.	.	.	.	8e\J	.	.	.	.
=75-	=75-	=75-	=75-	=75-	=75-	=75-	=75-	=75-
*	*ij	*	*	*	*	*	*	*
2FF/	Cru-	0ryy	.	1f\	.	.	1cc\	.
2C/	-ci-	.	.	.	.	.	.	.
*	*	*	*	*	*	*	*custos:cc	*
!	!	!	!	!	!	!	!LO:TX:t=P:problem=kreska pseudotaktowa	!
2.BB-/	-fix-	.	.	1d\	.	.	1dd\	.
4BB-/	-(us)	.	.	.	.	.	.	.
*	*Xij	*	*	*	*	*	*	*
!	!	!	!	!	!	!	!LO:LB:g=original	!
=76-	=76-	=76-	=76-	=76-	=76-	=76-	=76-	=76-
2.AA/	e-	0ryy	.	2.f\	e-	.	2cc\	.
.	.	.	.	.	.	.	1ff\	.
4FF/	-ti-	.	.	8e\	.	.	.	.
.	.	.	.	8d\	.	.	.	.
1C/	-am	.	.	2c/	-ti-	.	.	.
*	*	*	*	*custos:d	*	*	*	*
!	!	!	!	!	!	!	!LO:TX:t=P:problem=kreska pseudotaktowa	!
.	.	.	.	2c/	-am	.	2ee\	pro
!	!	!	!	!LO:LB:g=original	!	!	!	!
=77-	=77-	=77-	=77-	=77-	=77-	=77-	=77-	=77-
*2\left	*	*	*	*	*	*	*	*
2F\	pro	0ryy	.	2d\	pro	.	2.ff\	no-
2.A\	no-	.	.	2.f\	.	.	.	.
.	.	.	.	.	.	.	4ee\	.
.	.	.	.	.	.	.	2dd\	.
4G\	.	.	.	4e\	.	.	.	.
4F\	.	.	.	4d\	.	.	1cc\,<	.
4E\	.	.	.	4c/	.	.	.	.
=78-	=78-	=78-	=78-	=78-	=78-	=78-	=78-	=78-
1D\	.	0ryy	.	1d\	no-	.	.	.
!	!	!	!	!	!	!	!LO:TX:t=P:problem=kreska pseudotaktowa	!
.	.	.	.	.	.	.	2b-\	.
2E\	-bis	.	.	1c\	-bis	.	0cc\,<	-bis
2G\	.	.	.	.	.	.	.	.
=79-	=79-	=79-	=79-	=79-	=79-	=79-	=79-	=79-
(2C/	pro	0ryy	.	2r	.	.	.	.
2F\)	.	.	.	2c/	Sub	.	.	.
(2BB-/	no-	.	.	1.f\	pon-	.	2r	.
!	!	!	!	!	!	!	!LO:TX:t=P:problem=kreska pseudotaktowa	!
2C/)	.	.	.	.	.	.	2cc\	Svb
=80-	=80-	=80-	=80-	=80-	=80-	=80-	=80-	=80-
2FF/	-bis	0ryy	.	.	.	.	1.ff\	pon-
2F\	Sub	.	.	2f\	ti-	.	.	.
2A\	Pon-	.	.	1d\	-o	.	.	.
2F\	-ti-	.	.	.	.	.	2ff\,<	-ci-
=81-	=81-	=81-	=81-	=81-	=81-	=81-	=81-	=81-
2.A\	-o	0ryy	.	2c/	.	.	2ee\	-o
!	!	!	!	!	!	!	!LO:TX:t=P:problem=kreska pseudotaktowa	!
.	.	.	.	2A/	pi-	.	2cc\	.
4A\	.	.	.	.	.	.	.	.
2G\	Pi-	.	.	2B-/	-la-	.	2dd\	pi-
2.E\	-la-	.	.	2c/	-to	.	2.cc\,<	.
=82-	=82-	=82-	=82-	=82-	=82-	=82-	=82-	=82-
.	.	0ryy	.	2F/	.	.	.	.
4D\	.	.	.	.	.	.	4b-/	.
4C/	.	.	.	2.f\	pi-	.	4a/	.
!	!	!	!	!	!	!	!LO:TX:t=P:problem=kreska pseudotaktowa	!
4BB-/	.	.	.	.	.	.	4g/	.
2AA/	.	.	.	.	.	.	4a/	.
.	.	.	.	4e\	.	.	4b-/	.
2FF/	.	.	.	4d\	.	.	4cc/	.
!	!	!	!	!	!	!	!LO:TX:t=P:problem=kreska pseudotaktowa	!
.	.	.	.	4c/	.	.	4a/,<	.
=83-	=83-	=83-	=83-	=83-	=83-	=83-	=83-	=83-
1GG/	.	0ryy	.	2d\	.	.	2b-/	.
.	.	.	.	2.c/	.	.	2.a/	.
1AA/	.	.	.	.	.	.	.	.
.	.	.	.	4B-/	.	.	4g/,<	.
.	.	.	.	2A/	.	.	1f/	-la-
=84-	=84-	=84-	=84-	=84-	=84-	=84-	=84-	=84-
2BB-/	.	0ryy	.	1G/	-la-	.	.	.
2C/	.	.	.	.	.	.	2e/	.
!	!	!	!	!	!	!	!LO:TX:t=P:problem=kreska pseudotaktowa	!
1FF/	-to	.	.	2F/	-to	.	1f/,<	-to
.	.	.	.	2d\	paſ-	.	.	.
=85-	=85-	=85-	=85-	=85-	=85-	=85-	=85-	=85-
2BB-/	Pi-	0ryy	.	1f\	.	.	2r	.
2D/	.	.	.	.	.	.	2a/	paſ-
!LO:LB:g=original	!	!	!	!	!	!	!LO:TX:t=P:problem=kreska pseudotaktowa	!
1AA/	-la-	.	.	2e\	.	.	1cc\,<	.
.	.	.	.	2c\	-ſus	.	.	.
=86-	=86-	=86-	=86-	=86-	=86-	=86-	=86-	=86-
2BB-/	.	0ryy	.	2d\	et	.	2b-/	-ſus
*	*	*	*	*custos:e	*	*	*custos:a	*
!	!	!	!	!	!	!	!LO:TX:t=P:problem=kreska pseudotaktowa	!
2C/	-to	.	.	2e\	ſe-	.	2g/	et
!	!	!	!	!LO:LB:g=original	!	!	!LO:LB:g=original	!
2D/	paſ-	.	.	2f\	-pul-	.	2a/	ſe-
1F\	-ſus	.	.	1d\	-tus	.	4f/	-pul-
!	!	!	!	!	!	!	!LO:TX:t=P:problem=kreska pseudotaktowa	!
.	.	.	.	.	.	.	4g/	.
=87-	=87-	=87-	=87-	=87-	=87-	=87-	=87-	=87-
.	.	0ryy	.	.	.	.	4a/	.
.	.	.	.	.	.	.	4b-/	.
1E\	et	.	.	4c/	.	.	2.cc\	.
.	.	.	.	4B-/	.	.	.	.
.	.	.	.	2A/	.	.	.	.
.	.	.	.	.	.	.	4b-/	.
2C/	Se-	.	.	2c/	.	.	1a/,<	.
=88-	=88-	=88-	=88-	=88-	=88-	=88-	=88-	=88-
2F\	-pul-	0ryy	.	1B-/	.	.	.	.
2G\	-t(us)	.	.	.	.	.	2g/	-tus
!	!	!	!	!	!	!	!LO:TX:t=P:problem=kreska pseudotaktowa	!
2C/	eſt	.	.	2.A/	eſt	.	1a/	eſt
2C/	et	.	.	.	.	.	.	.
.	.	.	.	4B-/	.	.	.	.
=89-	=89-	=89-	=89-	=89-	=89-	=89-	=89-	=89-
2C/	re-	0ryy	.	1c\	.	.	2r	.
2C/	-ſur-	.	.	.	.	.	2g/	et
1.G\	-re-	.	.	2r	.	.	2g/	re-
!	!	!	!	!	!	!	!LO:TX:t=P:problem=kreska pseudotaktowa	!
.	.	.	.	2c/	et	.	2g/	-ſur-
=90-	=90-	=90-	=90-	=90-	=90-	=90-	=90-	=90-
.	.	0ryy	.	2c/	re-	.	1.cc\	-re-
2A\	.	.	.	2c/	-ſu-	.	.	.
2F\	-xit	.	.	1f\	-re-	.	.	.
2A\	ter-	.	.	.	.	.	4b-/	-xit
!	!	!	!	!	!	!	!LO:TX:t=P:problem=kreska pseudotaktowa	!
.	.	.	.	.	.	.	4a/	.
=91-	=91-	=91-	=91-	=91-	=91-	=91-	=91-	=91-
2.G\	-ti-	0ryy	.	2g\	-xit	.	2b-/	.
.	.	.	.	2.a\	ter-	.	2.cc\	.
4F\	.	.	.	.	.	.	.	.
2E\	.	.	.	.	.	.	.	.
.	.	.	.	4g\	-ti-	.	4b-/	.
!	!	!	!	!	!	!	!LO:TX:t=P:problem=kreska pseudotaktowa	!
2F\	-a	.	.	1f\	-a	.	2a/	.
=92-	=92-	=92-	=92-	=92-	=92-	=92-	=92-	=92-
1C/	di-	0ryy	.	.	.	.	2g/	.
.	.	.	.	2e\	di-	.	1cc\	.
2FF/	-e	.	.	1f\	-e	.	.	.
2F\	ter-	.	.	.	.	.	4b-/	.
!	!	!	!	!	!	!	!LO:TX:t=P:problem=kreska pseudotaktowa	!
.	.	.	.	.	.	.	4a/	.
=93-	=93-	=93-	=93-	=93-	=93-	=93-	=93-	=93-
1E\	-ti-	0ryy	.	2r	.	.	2b-/	.
.	.	.	.	2c/	ter-	[[ſe-	2cc\	.
!	!	!	!	!	!	!	!LO:TX:t=P:problem=kreska pseudotaktowa	!
2F\	-a	.	.	2d\	-ci-	-cun-	1f/	.
2D/	di-	.	.	1f\	-a	-dum	.	.
=94-	=94-	=94-	=94-	=94-	=94-	=94-	=94-	=94-
1C/	-e	0ryy	.	.	.	.	2r	.
.	.	.	.	2e\	di-	scri-	2cc\	ter-
1FF/	.	.	.	2d\	-e	.	2dd\	-ci-
.	.	.	.	4c/	.	.	1ff\,<	-a
.	.	.	.	4B-/	.	.	.	.
=95-	=95-	=95-	=95-	=95-	=95-	=95-	=95-	=95-
2r	.	0ryy	.	2A/	.	-ptu-	.	.
!	!	!	!	!	!	!	!LO:TX:t=P:problem=kreska pseudotaktowa	!
2C/	Se-	.	.	1c\	.	-ras]]	2ee\	.
2D/	-cun-	.	.	.	.	.	2dd\	.
1F\	-du(m)	.	.	2B-/	.	.	4cc/	die
.	.	.	.	.	.	.	4b-/,<	.
=96-	=96-	=96-	=96-	=96-	=96-	=96-	=96-	=96-
.	.	0ryy	.	1c\	.	.	2a/	.
2E\	.	.	.	.	.	.	1cc\	.
*	*	*	*	*custos:c	*	*	*	*
2F\	Scryp-	.	.	1d\	.	.	.	.
*	*	*	*	*	*	*	*custos:cc	*
!	!	!	!	!	!	!	!LO:TX:t=P:problem=kreska pseudotaktowa	!
2G\	-tu-	.	.	.	.	.	2b-/	.
!	!	!	!	!LO:PB:g=original	!	!	!LO:LB:g=original	!
=97-	=97-	=97-	=97-	=97-	=97-	=97-	=97-	=97-
!	!	!	!	!	!	!	!LO:TX:t=P:problem=kreska pseudotaktowa	!
1.C/	-raſ	0ryy	.	0c\	.	.	1cc\	.
.	.	.	.	.	.	.	2r	.
*	*ij	*	*	*	*	*	*	*
2E\	Se-	.	.	.	.	.	2g/,<	ter-
=98-	=98-	=98-	=98-	=98-	=98-	=98-	=98-	=98-
2F\	-cun-	0ryy	.	2r	.	.	2a/	-ci-
!	!	!	!	!	!	!	!LO:TX:t=P:problem=kreska pseudotaktowa	!
2C/	-du(m)	.	.	2c/	se-	[[scri-	2cc\	-a
2G\	Scryp-	.	.	2d/	-cun-	-ptu]]	2b-/	.
1C/	.	.	.	1f\	-du(m)	.	1a/,<	.
=99-	=99-	=99-	=99-	=99-	=99-	=99-	=99-	=99-
.	.	0ryy	.	.	.	.	.	.
2D/	-tu-	.	.	4e/	.	.	4g/	di-
.	.	.	.	4d/	.	.	4f/	.
!	!	!	!	!	!	!	!LO:TX:t=P:problem=kreska pseudotaktowa	!
1C/	.	.	.	1e\	scrip-	.	1g/	.
=100-	=100-	=100-	=100-	=100-	=100-	=100-	=100-	=100-
1FF/	-raſ	0ryy	.	2.f\	-tu-	.	2a,</	-e
!	!	!	!	!	!	!	!LO:TX:t=P:problem=kreska pseudotaktowa	!
.	.	.	.	.	.	.	2cc\	ſe-
.	.	.	.	4e\	-ras	.	.	.
!LO:LB:g=original	!	!	!	!	!	!	!	!
2BB-/	Se-	.	.	2d\	.	.	2b-/	-cun-
1C/	-cun-	.	.	1c\	.	.	1a/,<	-du(m)
=101-	=101-	=101-	=101-	=101-	=101-	=101-	=101-	=101-
.	.	0ryy	.	.	.	.	.	.
2D/	-dum	.	.	4B-/	.	.	4g/	.
.	.	.	.	4A/	.	.	4f/	.
2GG/	Scryp-	.	.	2B-/	.	.	1g/,<	.
2G\	-tu-	.	.	2c/	.	.	.	.
=102-	=102-	=102-	=102-	=102-	=102-	=102-	=102-	=102-
2F\	-raſ	0ryy	.	2F/	.	.	2a/	Scrip-
!	!	!	!	!	!	!	!LO:TX:t=P:problem=kreska pseudotaktowa	!
2C/	Se-	.	.	2A/	.	.	2cc/	-tu-
2D\	-cun-	.	.	2G/	.	.	2b-/	-ras
1F\	-du(m)	.	.	2.c/	.	.	1a/,<	.
=103-	=103-	=103-	=103-	=103-	=103-	=103-	=103-	=103-
.	.	0ryy	.	.	.	.	.	.
.	.	.	.	4A/	.	.	.	.
4E\	Skryp-	.	.	2B-/	ras	.	4g/	.
4D\	.	.	.	.	.	.	4f/	.
1C/	-tu-	.	.	1G/	.	.	1g/,<	.
=104-	=104-	=104-	=104-	=104-	=104-	=104-	=104-	=104-
0FF/;l	-raſ	0ryy	.	0F/l	.	.	0a/l	.
!LO:LB:g=original	!	!	!	!	!	!	!	!
*clefF3	*Xij	*	*	*	*	*	*	*
!	!	!LO:PB:g=original	!	!	!	!	!	!
=105||	=105||	=105||	=105||	=105||	=105||	=105||	=105||	=105||
*all\right	*	*	*	*	*	*	*	*
!LO:TX:t=Duo	!	!	!	!LO:TX:a:t=Et Aſcendit\nTacet	!	!	!LO:TX:a:t=Et aſcendit Tacet	!
1.A\	Et	2.A/	Et	0ryy	.	.	0ryy	.
.	.	4B-/	aſ-	.	.	.	.	.
.	.	1c\	-cen-	.	.	.	.	.
*2\right	*	*	*	*	*	*	*	*
2B-\	aſ-	.	.	.	.	.	.	.
=106-	=106-	=106-	=106-	=106-	=106-	=106-	=106-	=106-
!LO:TX:t=P:problem=kreska pseudotaktowa	!	!	!	!	!	!	!	!
1c\	-cen-	2A/	-dit	0ryy	.	.	0ryy	.
.	.	2B-/	.	.	.	.	.	.
2A\	-dit	2c/	in	.	.	.	.	.
2B-\	in	2d/	.	.	.	.	.	.
=107-	=107-	=107-	=107-	=107-	=107-	=107-	=107-	=107-
2.c\	ce-	1A/	ce-	0ryy	.	.	0ryy	.
8B-\	.	.	.	.	.	.	.	.
8c\	.	.	.	.	.	.	.	.
!LO:TX:t=P:problem=kreska pseudotaktowa	!	!	!	!	!	!	!	!
1d\	-lu(m)	1.B-/	-lu(m)	.	.	.	.	.
=108-	=108-	=108-	=108-	=108-	=108-	=108-	=108-	=108-
*lig	*	*	*	*	*	*	*	*
1D/	se-	.	.	0ryy	.	.	0ryy	.
.	.	2A/	ſe-	.	.	.	.	.
1E/	.	1G/	-det	.	.	.	.	.
*Xlig	*	*	*	*	*	*	*	*
=109-	=109-	=109-	=109-	=109-	=109-	=109-	=109-	=109-
2D/	-det	1F/	ad	0ryy	.	.	0ryy	.
!LO:TX:t=P:problem=kreska pseudotaktowa	!	!	!	!	!	!	!	!
2D/	ad	.	.	.	.	.	.	.
2C/	dex-	2.A/	dex-	.	.	.	.	.
1F\	-te-	.	.	.	.	.	.	.
.	.	4G/	.	.	.	.	.	.
=110-	=110-	=110-	=110-	=110-	=110-	=110-	=110-	=110-
.	.	4A/	-te-	0ryy	.	.	0ryy	.
.	.	4B-/	.	.	.	.	.	.
2E/	-r(am)	1c\	-ra(m)	.	.	.	.	.
1D/	p(at)-	.	.	.	.	.	.	.
.	.	2B-/	p(at)-	.	.	.	.	.
=111-	=111-	=111-	=111-	=111-	=111-	=111-	=111-	=111-
!LO:TX:t=P:problem=kreska pseudotaktowa	!	!	!	!	!	!	!	!
0C/	-ris	1c\	-ris	0ryy	.	.	0ryy	.
.	.	2.G/	Et	.	.	.	.	.
.	.	4A/	.	.	.	.	.	.
=112-	=112-	=112-	=112-	=112-	=112-	=112-	=112-	=112-
2.D/	Et	2B-/	i-	0ryy	.	.	0ryy	.
.	.	2A/	-te-	.	.	.	.	.
4E/	.	.	.	.	.	.	.	.
2F/	i-	2d/	-ru(m)	.	.	.	.	.
!LO:TX:t=P:problem=kreska pseudotaktowa	!	!	!	!	!	!	!	!
2F/	-te-	2d/	ven-	.	.	.	.	.
=113-	=113-	=113-	=113-	=113-	=113-	=113-	=113-	=113-
2F/	-ru(m)	2c/	-tu-	0ryy	.	.	0ryy	.
2G/	v(en)-	2B-/	-rus	.	.	.	.	.
2F/	-tu-	1A/	eſt	.	.	.	.	.
1F\	-rus	.	.	.	.	.	.	.
=114-	=114-	=114-	=114-	=114-	=114-	=114-	=114-	=114-
.	.	1c\	cu(m)	0ryy	.	.	0ryy	.
*custos:E	*	*	*	*	*	*	*	*
!LO:TX:t=P:problem=kreska pseudotaktowa	!	!	!	!	!	!	!	!
2C/	eſt	.	.	.	.	.	.	.
!LO:LB:g=original	!	!	!	!	!	!	!	!
2E/	cu(m)	2c/	gl(o-	.	.	.	.	.
2E/	Glo-	2c/	-r)i-	.	.	.	.	.
=115-	=115-	=115-	=115-	=115-	=115-	=115-	=115-	=115-
2D/	-ri-	2B-/	-a	0ryy	.	.	0ryy	.
1F\	-a	2A/	ju-	.	.	.	.	.
*	*	*custos:G	*	*	*	*	*	*
.	.	1G/	-di-	.	.	.	.	.
4E/	Ju-	.	.	.	.	.	.	.
!LO:TX:t=P:problem=kreska pseudotaktowa	!	!	!	!	!	!	!	!
4D/	.	.	.	.	.	.	.	.
!	!	!LO:LB:g=original	!	!	!	!	!	!
=116-	=116-	=116-	=116-	=116-	=116-	=116-	=116-	=116-
2E/	-di-	1G/	-ca-	0ryy	.	.	0ryy	.
2E/	-ca-	.	.	.	.	.	.	.
!LO:TX:t=P:problem=kreska pseudotaktowa	!	!	!	!	!	!	!	!
1F\	-re	2F/	-re	.	.	.	.	.
.	.	2c/	vi-	.	.	.	.	.
=117-	=117-	=117-	=117-	=117-	=117-	=117-	=117-	=117-
2r	.	1.f\	-vos	0ryy	.	.	0ryy	.
2F/	Vi-	.	.	.	.	.	.	.
1.B-\	-vos	.	.	.	.	.	.	.
.	.	2e\	et	.	.	.	.	.
=118-	=118-	=118-	=118-	=118-	=118-	=118-	=118-	=118-
.	.	1d\	mor-	0ryy	.	.	0ryy	.
!LO:TX:t=P:problem=kreska pseudotaktowa	!	!	!	!	!	!	!	!
2B-\	et	.	.	.	.	.	.	.
4A\	mor-	1e\	-tu-	.	.	.	.	.
4G\	.	.	.	.	.	.	.	.
4F/	.	.	.	.	.	.	.	.
!LO:TX:t=P:problem=kreska pseudotaktowa	!	!	!	!	!	!	!	!
4E/	.	.	.	.	.	.	.	.
=119-	=119-	=119-	=119-	=119-	=119-	=119-	=119-	=119-
4D/	.	1f\	-os	0ryy	.	.	0ryy	.
4E/	.	.	.	.	.	.	.	.
4F/	.	.	.	.	.	.	.	.
4G\	.	.	.	.	.	.	.	.
4A\	.	2r	.	.	.	.	.	.
4B-\	.	.	.	.	.	.	.	.
1c\	.	2c/	Cv-	.	.	.	.	.
=120-	=120-	=120-	=120-	=120-	=120-	=120-	=120-	=120-
.	.	1d\	-ius	0ryy	.	.	0ryy	.
2B-\	-tu-	.	.	.	.	.	.	.
!LO:TX:t=P:problem=kreska pseudotaktowa	!	!	!	!	!	!	!	!
1c\	-os	1e\	re-	.	.	.	.	.
=121-	=121-	=121-	=121-	=121-	=121-	=121-	=121-	=121-
2r	.	2c/	.	0ryy	.	.	0ryy	.
2F/	Cv-	2f\	-gni	.	.	.	.	.
!LO:TX:t=P:problem=kreska pseudotaktowa	!	!	!	!	!	!	!	!
1G\	-ius	2d\	non	.	.	.	.	.
.	.	2.e\	e-	.	.	.	.	.
=122-	=122-	=122-	=122-	=122-	=122-	=122-	=122-	=122-
1A\	re-	.	.	0ryy	.	.	0ryy	.
.	.	4d/	.	.	.	.	.	.
.	.	4c/	.	.	.	.	.	.
.	.	4B-/	-rit	.	.	.	.	.
!LO:TX:t=P:problem=kreska pseudotaktowa	!	!	!	!	!	!	!	!
1F\	-gni	4A/	.	.	.	.	.	.
.	.	4G/	fi-	.	.	.	.	.
.	.	4A/	.	.	.	.	.	.
.	.	4B-/	.	.	.	.	.	.
=123-	=123-	=123-	=123-	=123-	=123-	=123-	=123-	=123-
2r	.	4c/	.	0ryy	.	.	0ryy	.
.	.	4d/	.	.	.	.	.	.
*custos:G	*	*	*	*	*	*	*	*
!LO:TX:t=P:problem=kreska pseudotaktowa	!	!	!	!	!	!	!	!
2F/	no(n)	1c\	-nis	.	.	.	.	.
!LO:LB:g=original	!	!	!	!	!	!	!	!
1G\	e-	.	.	.	.	.	.	.
.	.	2B-/	.	.	.	.	.	.
=124-	=124-	=124-	=124-	=124-	=124-	=124-	=124-	=124-
2.A\	-rit	2c/	.	0ryy	.	.	0ryy	.
.	.	2.f\	.	.	.	.	.	.
!LO:TX:t=P:problem=kreska pseudotaktowa	!	!	!	!	!	!	!	!
4G\	fi-	.	.	.	.	.	.	.
2F/	.	.	.	.	.	.	.	.
.	.	4e\	.	.	.	.	.	.
2.G\	.	4d/	.	.	.	.	.	.
.	.	4c/	.	.	.	.	.	.
=125-	=125-	=125-	=125-	=125-	=125-	=125-	=125-	=125-
.	.	2B-/	.	0ryy	.	.	0ryy	.
4F/	.	.	.	.	.	.	.	.
4E/	.	2.c/	.	.	.	.	.	.
!LO:TX:t=P:problem=kreska pseudotaktowa	!	!	!	!	!	!	!	!
4D/	.	.	.	.	.	.	.	.
2C/	.	.	.	.	.	.	.	.
.	.	4B-/	.	.	.	.	.	.
1F\	-nis	4A/	.	.	.	.	.	.
.	.	4G/	.	.	.	.	.	.
=126-	=126-	=126-	=126-	=126-	=126-	=126-	=126-	=126-
.	.	4A/	.	0ryy	.	.	0ryy	.
.	.	4G/	.	.	.	.	.	.
2E/	.	1c\	.	.	.	.	.	.
!LO:TX:t=P:problem=kreska pseudotaktowa	!	!	!	!	!	!	!	!
1D/	.	.	.	.	.	.	.	.
.	.	2B-/	.	.	.	.	.	.
=127-	=127-	=127-	=127-	=127-	=127-	=127-	=127-	=127-
*	*	*	*	*custos:f	*	*	*custos:ff	*
!LO:TX:t=P:problem=kreska pseudotaktowa	!	!	!	!	!	!	!	!
0C/l	.	1A/	.	0ryy	.	.	0ryy	.
*	*	*custos:A	*	*	*	*	*	*
.	.	1c/l 1G/l	.	.	.	.	.	.
!	!	!LO:LB:g=original	!	!LO:LB:g=original	!	!	!LO:LB:g=original	!
=128||	=128||	=128||	=128||	=128||	=128||	=128||	=128||	=128||
1.F\	Et	2.A/	Et	1.f\	Et	.	1.ff\	Et
.	.	4B-/	in	.	.	.	.	.
.	.	2c/	spi-	.	.	.	.	.
!LO:TX:t=P:problem=kreska pseudotaktowa	!	!	!	!	!	!	!LO:TX:t=P:problem=kreska pseudotaktowa	!
2F/	In	2c/	-ri-	2f\	in	.	2ff\	in
=129-	=129-	=129-	=129-	=129-	=129-	=129-	=129-	=129-
2C/	Spi-	1c\	-(tum)	2g\	spi-	.	2ee\	ſp(i-
2C/	ri-	.	.	2g\	-ri-	.	2ee\	-ri-
!LO:TX:t=P:problem=kreska pseudotaktowa	!	!	!	!	!	!	!	!
0F\	-(tum)	1c\	sa(n)-	2a\	-(tum)	.	2.ff\	-tu)m
.	.	.	.	2.f\	San-	.	.	.
!	!	!	!	!	!	!	!LO:TX:t=P:problem=kreska pseudotaktowa	!
.	.	.	.	.	.	.	4ee\	.
=130-	=130-	=130-	=130-	=130-	=130-	=130-	=130-	=130-
.	.	1A/	-ctu(m)	.	.	.	2dd\	San-
.	.	.	.	4e\	.	.	.	.
.	.	.	.	2f\	.	.	1cc\	.
1G\	S(an)-	2.B-/	Do-	1d\	-ctu(m)	.	.	.
!	!	!	!	!	!	!	!LO:TX:t=P:problem=kreska pseudotaktowa	!
.	.	.	.	.	.	.	2b-/	-ctu(m)
.	.	4A/	.	.	.	.	.	.
=131-	=131-	=131-	=131-	=131-	=131-	=131-	=131-	=131-
!LO:TX:t=P:problem=kreska pseudotaktowa	!	!	!	!	!	!	!	!
1A\	.	4F/	.	2c/	do-	.	2.cc\	do-
.	.	4G/	.	.	.	.	.	.
.	.	4A/	.	2F/	-mi-	.	.	.
.	.	4B-/	.	.	.	.	4b-/	.
1F\	-ctum	2c/	-mi-	1A/	-nu(m)	.	4a/	.
.	.	.	.	.	.	.	4g/	.
.	.	1d\	.	.	.	.	1f/,<	.
=132-	=132-	=132-	=132-	=132-	=132-	=132-	=132-	=132-
1B-\	d(o-	.	.	1G/	.	.	.	.
.	.	4c/	.	.	.	.	2e/	-mi-
.	.	4B-/	.	.	.	.	.	.
!	!	!	!	!	!	!	!LO:TX:t=P:problem=kreska pseudotaktowa	!
2.A\	-mi)-	1c\	-num	4F/	.	.	1f/	-nu(m)
.	.	.	.	4G/	.	.	.	.
.	.	.	.	4A/	.	.	.	.
4G\	.	.	.	4B-/	.	.	.	.
=133-	=133-	=133-	=133-	=133-	=133-	=133-	=133-	=133-
*custos:CC	*	*	*	*	*	*	*	*
!LO:TX:t=P:problem=kreska pseudotaktowa	!	!	!	!	!	!	!	!
1F\	-nu(m)	2r	.	1c\	.	.	2r	.
.	.	1f\	et	.	.	.	2cc\	et
2r	.	.	.	2r	.	.	2cc\	vi-
!LO:LB:g=original	!	!	!	!	!	!	!	!
!LO:TX:t=P:problem=kreska pseudotaktowa	!	!	!	!	!	!	!LO:TX:t=P:problem=kreska pseudotaktowa	!
2C/	et	2e\	vi-	2G/	et	.	2cc\	-vi-
=134-	=134-	=134-	=134-	=134-	=134-	=134-	=134-	=134-
2F/	vi-	2f\	-vi-	2A/	vi-	.	1dd\	-fi-
2G\	-vi-	2d\	-fi-	2B-/	-vi-	.	.	.
!LO:TX:t=P:problem=kreska pseudotaktowa	!	!	!	!	!	!	!	!
1C/	-fi-	2c/	-can-	4G/	-fi-	.	2ee\	-can-
.	.	.	.	4F/	.	.	.	.
.	.	2g\	-tem	4G/	.	.	4dd\	-te(m)
!	!	!	!	!	!	!	!LO:TX:t=P:problem=kreska pseudotaktowa	!
.	.	.	.	4A/	.	.	4cc\	.
=135-	=135-	=135-	=135-	=135-	=135-	=135-	=135-	=135-
1.D/	-can-	1.f\	.	4B-/	.	.	2.ff\	.
.	.	.	.	4c/	.	.	.	.
.	.	.	.	4d/	.	.	.	.
.	.	.	.	4e/	.	.	4ee\	.
.	.	.	.	2f\	.	.	2dd\	.
*	*	*	*	*custos:aa	*	*	*	*
!LO:TX:t=P:problem=kreska pseudotaktowa	!	!	!	!	!	!	!	!
2E/	-tem	2e\	.	2g\	.	.	1cc\,<	.
!	!	!	!	!LO:LB:g=original	!	!	!	!
=136-	=136-	=136-	=136-	=136-	=136-	=136-	=136-	=136-
2F/	.	1d\	.	2a\	.	.	.	.
2G\	.	.	.	1g\	-can-	.	2b-/	.
!LO:TX:t=P:problem=kreska pseudotaktowa	!	!	!	!	!	!	!LO:TX:t=P:problem=kreska pseudotaktowa	!
1A\	.	1c\	.	.	.	.	1cc\	.
.	.	.	.	2f\	.	.	.	.
=137-	=137-	=137-	=137-	=137-	=137-	=137-	=137-	=137-
2G\	.	2r	.	2g\	-te(m)	.	2r	.
2C/	qui	2c/	qui	2G/	qui	.	2cc/	qui
2F/	ex	2.c/	ex	4A/	ex	.	2cc/	ex
.	.	.	.	4B-/	.	.	.	.
!LO:TX:t=P:problem=kreska pseudotaktowa	!	!	!	!	!	!	!LO:TX:t=P:problem=kreska pseudotaktowa	!
2F/	p(at)-	.	.	4c/	p(at)-	.	2cc/	p(at)-
.	.	4d/	p(at)-	4A/	-re(m)	.	.	.
=138-	=138-	=138-	=138-	=138-	=138-	=138-	=138-	=138-
1G\	-re(m)	1e\	-re	1B-/	fi-	.	2b-/	-re(m)
*	*	*	*	*	*	*	*custos:a	*
!	!	!	!	!	!	!	!LO:TX:t=P:problem=kreska pseudotaktowa	!
.	.	.	.	.	.	.	2g/	fi-
!	!	!	!	!	!	!	!LO:PB:g=original	!
2F/	fi-	1f\	fi-	2c/	-li-	.	2a/	-li-
!LO:TX:t=P:problem=kreska pseudotaktowa	!	!	!	!	!	!	!	!
2F/	-li-	.	.	2c/	-o-	.	2a/,<	-o-
=139-	=139-	=139-	=139-	=139-	=139-	=139-	=139-	=139-
2G\	-o-	2e/	-li-	2.B-/	-(que)	.	2.g/	-(que)
2.B-\	-que(m)	2.d/	-o-	.	.	.	.	.
!	!	!	!	!	!	!	!LO:TX:t=P:problem=kreska pseudotaktowa	!
.	.	.	.	4c/	pro-	.	4a/	.
.	.	.	.	4d\	.	.	2b-/	pro-
4A\	pro-	4c/	-q(ue)	4e\	.	.	.	.
*	*	*custos:B	*	*	*	*	*	*
!LO:TX:t=P:problem=kreska pseudotaktowa	!	!	!	!	!	!	!	!
2F/	-ce-	2A/	pro-	2.f\	.	.	1a/	-ce-
!	!	!LO:LB:g=original	!	!	!	!	!	!
=140-	=140-	=140-	=140-	=140-	=140-	=140-	=140-	=140-
1G\	.	1B-/	-ce-	.	.	.	.	.
.	.	.	.	4d\	.	.	.	.
.	.	.	.	2e\	.	.	2g/	.
!LO:TX:t=P:problem=kreska pseudotaktowa	!	!	!	!	!	!	!LO:TX:t=P:problem=kreska pseudotaktowa	!
1F\	-dit	1A/	-dit	2f\	.	.	1a/	-dit
.	.	.	.	2c/	.	.	.	.
=141-	=141-	=141-	=141-	=141-	=141-	=141-	=141-	=141-
2r	.	2r	.	1d\	.	.	2r	.
2F/	qui	2f\	qui	.	.	.	2a/	qui
!LO:TX:t=P:problem=kreska pseudotaktowa	!	!	!	!	!	!	!	!
1G\	cu(m)	2d\	cu(m)	1B-/	-ce-	.	1b-\,<	cu(m)
.	.	2.e\	p(at)-	.	.	.	.	.
=142-	=142-	=142-	=142-	=142-	=142-	=142-	=142-	=142-
!	!	!	!	!	!	!	!LO:TX:t=P:problem=kreska pseudotaktowa	!
1E/	p(at)-	.	.	1c\	-dit	.	1g/	p(at)-
.	.	4d\	.	.	.	.	.	.
.	.	2e\	-tre	.	.	.	.	.
!LO:TX:t=P:problem=kreska pseudotaktowa	!	!	!	!	!	!	!	!
1F\	-re	4c/	et	2r	.	.	1.a/,<	-re(m)
.	.	4B-/	.	.	.	.	.	.
.	.	4A/	fi-	2c/	qui	.	.	.
.	.	4G/	.	.	.	.	.	.
=143-	=143-	=143-	=143-	=143-	=143-	=143-	=143-	=143-
2r	.	2F/	.	1d\	cu(m)	.	.	.
*custos:G	*	*	*	*	*	*	*	*
!LO:TX:t=P:problem=kreska pseudotaktowa	!	!	!	!	!	!	!	!
2F/	et	2f\	.	.	.	.	2a/	et
!LO:PB:g=original	!	!	!	!	!	!	!	!
1G\	fi-	2d\	.	1B-/	p(at)-	.	1b-\,<	fi-
.	.	2.e\	.	.	.	.	.	.
=144-	=144-	=144-	=144-	=144-	=144-	=144-	=144-	=144-
!	!	!	!	!	!	!	!LO:TX:t=P:problem=kreska pseudotaktowa	!
1E/	-li-	.	.	1c\	-re(m)	.	1g/	-li-
.	.	4d\	-li-	.	.	.	.	.
.	.	2e\	.	.	.	.	.	.
!LO:TX:t=P:problem=kreska pseudotaktowa	!	!	!	!	!	!	!	!
1F\	-o	4c/	.	2r	.	.	2a/	-o
.	.	4B-/	.	.	.	.	.	.
.	.	4A/	.	1f\	Si-	.	2cc/,<	si-
.	.	4G/	.	.	.	.	.	.
=145-	=145-	=145-	=145-	=145-	=145-	=145-	=145-	=145-
2r	.	2F/	-o	.	.	.	2cc/	-mul
*	*	*	*	*custos:d	*	*	*	*
2F/	Si-	2f\	Si-	2f\	-mul	.	2cc/	a-
!	!	!	!	!LO:LB:g=original	!	!	!	!
2B-\	-mul	2f\	-mul	2.d/	a-	.	1dd\,<	-do-
!LO:TX:t=P:problem=kreska pseudotaktowa	!	!	!	!	!	!	!	!
2B-\	a-	2f\	a-	.	.	.	.	.
.	.	.	.	4c/	-do-	.	.	.
=146-	=146-	=146-	=146-	=146-	=146-	=146-	=146-	=146-
!	!	!	!	!	!	!	!LO:TX:t=P:problem=kreska pseudotaktowa	!
1G\	-do-	1g\	-do-	2d\	-ra-	.	1b-\	-ra-
.	.	.	.	2e\	.	.	.	.
1A\	-ra-	1e\	-ra-	1c\	-tur	.	1cc\,<	-tur
=147-	=147-	=147-	=147-	=147-	=147-	=147-	=147-	=147-
!LO:TX:t=P:problem=kreska pseudotaktowa	!	!	!	!	!	!	!	!
1F\	-tur	1f\	-tur	2r	.	.	2r	.
!	!	!	!	!	!	!	!LO:TX:t=P:problem=kreska pseudotaktowa	!
.	.	.	.	2c/	et	.	2cc/	et
2r	.	2r	.	1f\	con-	.	2cc/	c(on)-
2F/	et	1f\	et	.	.	.	2cc/,<	-glo-
=148-	=148-	=148-	=148-	=148-	=148-	=148-	=148-	=148-
1B-\	con0glo-	.	.	2.d/	-glo-	.	2dd\	-ri-
!	!	!	!	!	!	!	!LO:TX:t=P:problem=kreska pseudotaktowa	!
.	.	2f\	con-	.	.	.	2dd\	-fi-
.	.	.	.	4c/	-ri-	.	.	.
!LO:TX:t=P:problem=kreska pseudotaktowa	!	!	!	!	!	!	!	!
1G\	-ri-	2.g\	-glo-	2d\	-fi-	.	1b-\,<	-ca-
.	.	.	.	2e\	.	.	.	.
.	.	4f\	.	.	.	.	.	.
=149-	=149-	=149-	=149-	=149-	=149-	=149-	=149-	=149-
!	!	!	!	!	!	!	!LO:TX:t=P:problem=kreska pseudotaktowa	!
2.A\	-fi-	2e\	-ri-	2c/	.	.	1cc\	-tur
.	.	2c/	-fi-	1f\	.	.	.	.
4A\	-ca-	.	.	.	.	.	.	.
1G\	.	2d/	-ca-	.	.	.	2r	.
.	.	4c/	.	2e\	.	.	2g/,<	qui
*	*	*custos:a	*	*	*	*	*	*
.	.	4B-/	.	.	.	.	.	.
!	!	!LO:LB:g=original	!	!	!	!	!	!
=150-	=150-	=150-	=150-	=150-	=150-	=150-	=150-	=150-
!LO:TX:t=P:problem=kreska pseudotaktowa	!	!	!	!	!	!	!	!
1F\	-tur	1A/	-tur	2f\	-ca-	.	2.cc/	lo-
.	.	.	.	2c/	-tur	.	.	.
*	*	*	*	*	*	*	*custos:b	*
!	!	!	!	!	!	!	!LO:TX:t=P:problem=kreska pseudotaktowa	!
.	.	.	.	.	.	.	4cc/	-cv-
!	!	!	!	!	!	!	!LO:LB:g=original	!
2r	.	2G/	qui	2d\	qui	.	2b-/	-tus
2F/	qui	2A/	lo-	2.f\	lo-	.	2a/	.
=151-	=151-	=151-	=151-	=151-	=151-	=151-	=151-	=151-
1G\	lo-	2.B-/	-cu-	.	.	.	2g/	eſt
.	.	.	.	4d\	.	.	.	.
!	!	!	!	!	!	!	!LO:TX:t=P:problem=kreska pseudotaktowa	!
.	.	.	.	2e\	.	.	2b-/	.
.	.	4c/	.	.	.	.	.	.
2F/	-cu-	1d\	-tus	1f\	-cu-	.	2a/	per
!LO:TX:t=P:problem=kreska pseudotaktowa	!	!	!	!	!	!	!	!
2D/	-tus	.	.	.	.	.	4g/	.
.	.	.	.	.	.	.	4f/,<	.
=152-	=152-	=152-	=152-	=152-	=152-	=152-	=152-	=152-
2E/	eſt	2.c/	eſt	2e\	-t(us)	.	2g/	pro-
!	!	!	!	!	!	!	!LO:TX:t=P:problem=kreska pseudotaktowa	!
1F\	p(er)	.	.	2.d\	eſt	.	2a/	.
.	.	4B-/	.	.	.	.	.	.
.	.	2A/	.	.	.	.	2f/	-phe-
.	.	.	.	4c/	p(er)	.	.	.
2E/	pro-	2G/	per	1c\	pro-	.	2.g/,<	.
=153-	=153-	=153-	=153-	=153-	=153-	=153-	=153-	=153-
1D/	-phe-	2A/	.	.	.	.	.	.
.	.	.	.	.	.	.	4f/	.
.	.	2F/	pro-	2B-/	-phe-	.	1f/	.
!LO:TX:t=P:problem=kreska pseudotaktowa	!	!	!	!	!	!	!	!
1C/	-tas	1G/	-phe-	0c\	-tas	.	.	.
.	.	.	.	.	.	.	2e/	.
=154-	=154-	=154-	=154-	=154-	=154-	=154-	=154-	=154-
!	!	!	!	!	!	!	!LO:TX:t=P:problem=kreska pseudotaktowa	!
2r	.	1F/	-tas	.	.	.	1f/	-tas
1F\	et	.	.	.	.	.	.	.
.	.	2.A/	et	2r	.	.	2r	.
*custos:F	*	*	*	*	*	*	*	*
!LO:TX:t=P:problem=kreska pseudotaktowa	!	!	!	!	!	!	!	!
2C/	u-	.	.	2c/	et	.	2cc\,<	et
.	.	4A/	u-	.	.	.	.	.
!LO:LB:g=original	!	!	!	!	!	!	!	!
=155-	=155-	=155-	=155-	=155-	=155-	=155-	=155-	=155-
2F/	-n(am)	2A/	-n(am)	2c/	u-	.	2cc\	u-
!	!	!	!	!	!	!	!LO:TX:t=P:problem=kreska pseudotaktowa	!
4G\	San-	2F/	.	1d\	-n(am)	.	2a/	-na(m)
4A\	.	.	.	.	.	.	.	.
!LO:TX:t=P:problem=kreska pseudotaktowa	!	!	!	!	!	!	!	!
1B-\	.	2G/	Sa(n)-	.	.	.	1dd\,<	S(an)-
*	*	*	*	*custos:c	*	*	*	*
.	.	2d\	.	2B-/	san-	.	.	.
!	!	!	!	!LO:LB:g=original	!	!	!	!
=156-	=156-	=156-	=156-	=156-	=156-	=156-	=156-	=156-
2A\	-ct(am)	2e\	-ct(am)	2c/	-ct(am)	.	2cc\	-tam
!	!	!	!	!	!	!	!LO:TX:t=P:problem=kreska pseudotaktowa	!
2F/	ca-	1d\	Ca-	2f\	ca-	.	2a/	ca-
2G\	-tho-	.	.	2f\	-tho-	.	2b-/	-tho-
2G\	-li-	4c/	-tho-	2e\	-li-	.	2b-/,<	-li-
.	.	4B-/	.	.	.	.	.	.
=157-	=157-	=157-	=157-	=157-	=157-	=157-	=157-	=157-
!LO:TX:t=P:problem=kreska pseudotaktowa	!	!	!	!	!	!	!	!
1F\	-c(am)	2d\	-li-	1f\	-c(am)	.	2a/	-c(am)
!	!	!	!	!	!	!	!LO:TX:t=P:problem=kreska pseudotaktowa	!
.	.	2c/	-ca(m)	.	.	.	2cc/	et
2r	.	2r	.	2r	.	.	2cc/	a-
2F/	et	2f\	et	2a\	et	.	2a/,<	-p(o-
=158-	=158-	=158-	=158-	=158-	=158-	=158-	=158-	=158-
2B-\	a-	2f\	a-	2.f\	a-	.	2.dd\	-sto)-
!LO:TX:t=P:problem=kreska pseudotaktowa	!	!	!	!	!	!	!	!
2B-\	-p(o-	2d\	-po-	.	.	.	.	.
!	!	!	!	!	!	!	!LO:TX:t=P:problem=kreska pseudotaktowa	!
.	.	.	.	4g\	-p(o-	.	4dd\	-li-
2A\	-sto)-	2e\	-sto-	2a\	-sto)-	.	2cc\	-c(am)
2A\	-li-	2c/	-li-	2f\	-li-	.	4b-/	.
.	.	.	.	.	.	.	4a/,<	.
=159-	=159-	=159-	=159-	=159-	=159-	=159-	=159-	=159-
2G\	-ca(m)	2.d\	-ca(m)	4g\	-cam	.	2b-/	ec-
.	.	.	.	4d\	ec-	.	.	.
!LO:TX:t=P:problem=kreska pseudotaktowa	!	!	!	!	!	!	!	!
2B-\	ec-	.	.	1g\	-l(e-	.	2.dd\	-cle-
.	.	4e\	.	.	.	.	.	.
2A\	-cle-	4f\	ec-	.	.	.	.	.
.	.	4e\	.	.	.	.	4cc\,<	.
2A\	-si-	4d\	-cle-	2f\	-s)i-	.	1cc\	-ſi-
*	*	*custos:d	*	*	*	*	*	*
.	.	4c\	.	.	.	.	.	.
!	!	!LO:PB:g=original	!	!	!	!	!	!
=160-	=160-	=160-	=160-	=160-	=160-	=160-	=160-	=160-
!LO:TX:t=P:problem=kreska pseudotaktowa	!	!	!	!	!	!	!	!
1G\	-am	1d\	-ſi-	2.g\	-am	.	.	.
*	*	*	*	*	*	*	*custos:cc	*
!	!	!	!	!	!	!	!LO:TX:t=P:problem=kreska pseudotaktowa	!
.	.	.	.	.	.	.	2b-/	.
.	.	.	.	4f\	.	.	.	.
!	!	!	!	!	!	!	!LO:LB:g=original	!
!	!	!	!	!	!	!	!LO:TX:t=P:problem=kreska pseudotaktowa	!
2r	.	1c\	-am.	4e\	.	.	1cc\	-am
.	.	.	.	4d\	.	.	.	.
2c\	Con-	.	.	2a\	Con-	.	.	.
=161-	=161-	=161-	=161-	=161-	=161-	=161-	=161-	=161-
2B-\	-fi-	2r	.	2g\	-fi-	.	2r	.
2A\	-te-	2c/	Con-	1f\	-te-	.	2f/	Con-
!LO:TX:t=P:problem=kreska pseudotaktowa	!	!	!	!	!	!	!	!
1G\	-or	2d/	-fi-	.	.	.	2g/	-fi-
!	!	!	!	!	!	!	!LO:TX:t=P:problem=kreska pseudotaktowa	!
.	.	2B-/	-te-	2e\	.	.	2g/	-te-
=162-	=162-	=162-	=162-	=162-	=162-	=162-	=162-	=162-
2.F/	u-	2c/	-or	2f\	-or	.	1.a/	-or
.	.	2.f\	v-	4e\	u-	.	.	.
4G\	.	.	.	4d\	.	.	.	.
2A\	-nu(m)	.	.	2c/	.	.	.	.
.	.	4e\	.	.	.	.	.	.
1B-\	bap-	4d/	-nu(m)	2.d/	-nu(m)	.	2f/,<	u-
.	.	4c/	.	.	.	.	.	.
=163-	=163-	=163-	=163-	=163-	=163-	=163-	=163-	=163-
.	.	2B-/	Bap-	.	.	.	2g/	-nu(m)
.	.	.	.	4c/	bap-	.	.	.
!LO:TX:t=P:problem=kreska pseudotaktowa	!	!	!	!	!	!	!	!
2A\	.	2c/	.	1f\	-tis-	.	2a/	bap-
1G\	-tis-	2d/	-tiſ-	.	.	.	1b-\,<	-tis-
.	.	4c/	.	2e\	.	.	.	.
.	.	4B-/	.	.	.	.	.	.
=164-	=164-	=164-	=164-	=164-	=164-	=164-	=164-	=164-
!LO:TX:t=P:problem=kreska pseudotaktowa	!	!	!	!	!	!	!LO:TX:t=P:problem=kreska pseudotaktowa	!
1F\	-ma	2d/	.	2.f\	-ma	.	1a/	-ma
.	.	2c/	.	.	.	.	.	.
*	*	*	*	*custos:aa	*	*	*	*
.	.	.	.	4g\	.	.	.	.
*custos:F	*	*	*	*	*	*	*	*
!	!	!	!	!LO:PB:g=original	!	!	!	!
2r	.	1F/	-ma	1a\	.	.	2r	.
!LO:LB:g=original	!	!	!	!	!	!	!	!
!LO:TX:t=P:problem=kreska pseudotaktowa	!	!	!	!	!	!	!	!
2F/	in	.	.	.	.	.	2cc\,<	in
=165-	=165-	=165-	=165-	=165-	=165-	=165-	=165-	=165-
2.B-\	re-	2r	.	2r	.	.	2.dd\	re-
.	.	2f\	in	2d/	in	.	.	.
!	!	!	!	!	!	!	!LO:TX:t=P:problem=kreska pseudotaktowa	!
4B-\	-miſ-	.	.	.	.	.	4dd\	-miſ-
2G\	-ſi-	2.g\	re-	2.e\	re-	.	2b-/	-ſi-
!LO:TX:t=P:problem=kreska pseudotaktowa	!	!	!	!	!	!	!	!
2G\	-o-	.	.	.	.	.	2b-/,<	-o-
.	.	4f\	.	4d/	-miſ-	.	.	.
=166-	=166-	=166-	=166-	=166-	=166-	=166-	=166-	=166-
1A\	-ne(m)	2e\	-miſ-	2c/	-ſi-	.	2.cc/	-ne(m)
.	.	1f\	-ſi-	2c/	-o-	.	.	.
.	.	.	.	.	.	.	4b-/	pe-
!LO:TX:t=P:problem=kreska pseudotaktowa	!	!	!	!	!	!	!	!
1F\	p(ec-	.	.	1d\	-ne	.	2a/	-(ca)-
.	.	1d\	-o-	.	.	.	2.dd\,<	-to-
=167-	=167-	=167-	=167-	=167-	=167-	=167-	=167-	=167-
1G\	-ca)-	.	.	2.B-/	pe-	.	.	.
.	.	.	.	.	.	.	4cc\	.
.	.	2.g\	-ne(m)	.	.	.	1cc\	.
.	.	.	.	4c/	-(ca)-	.	.	.
1G\	-to-	.	.	1d\	-to-	.	.	.
.	.	4f\	.	.	.	.	.	.
.	.	2g\	pec-	.	.	.	2b-/,<	.
=168-	=168-	=168-	=168-	=168-	=168-	=168-	=168-	=168-
!LO:TX:t=P:problem=kreska pseudotaktowa	!	!	!	!	!	!	!LO:TX:t=P:problem=kreska pseudotaktowa	!
1C/	-ru(m)	1e\	-ca-	1c\	-ru(m)	.	1cc\	-rum
2r	.	1f\	-to-	2c/	et	.	2r	.
2F/	et	.	.	1f\	ex-	.	2a/,<	et
=169-	=169-	=169-	=169-	=169-	=169-	=169-	=169-	=169-
!	!	!	!	!	!	!	!LO:TX:t=P:problem=kreska pseudotaktowa	!
1B-\	ex-	2d/	-ru(m)	.	.	.	1dd\	ex-
.	.	2.g\	et	1d\	-pec-	.	.	.
!LO:TX:t=P:problem=kreska pseudotaktowa	!	!	!	!	!	!	!	!
1G\	-pec-	.	.	.	.	.	1b-\,<	-pec-
.	.	4f\	ex-	.	.	.	.	.
.	.	4e\	.	2.g\	-to	.	.	.
.	.	4d\	.	.	.	.	.	.
=170-	=170-	=170-	=170-	=170-	=170-	=170-	=170-	=170-
!	!	!	!	!	!	!	!LO:TX:t=P:problem=kreska pseudotaktowa	!
2.c\	-to	2e\	-pec-	.	.	.	1g/	-to
.	.	.	.	4f\	.	.	.	.
.	.	2c/	-to	4e\	re-	.	.	.
4B-\	.	.	.	4d/	.	.	.	.
4A\	.	2r	.	2e\	-ſu-	.	2r	.
4G\	.	.	.	.	.	.	.	.
*	*	*custos:B	*	*	*	*	*	*
!LO:TX:t=P:problem=kreska pseudotaktowa	!	!	!	!	!	!	!	!
2A\	re-	2c/	re-	2c/	-re-	.	2a/,<	re-
!	!	!LO:LB:g=original	!	!	!	!	!	!
=171-	=171-	=171-	=171-	=171-	=171-	=171-	=171-	=171-
2B-\	-ſu-	2B-/	-ſu-	2d/	-cti-	.	2g/	-ſvr-
*	*	*	*	*	*	*	*custos:b	*
!	!	!	!	!	!	!	!LO:TX:t=P:problem=kreska pseudotaktowa	!
2A\	-rec-	2c/	-re-	1f\	-o-	.	2a/	-rec-
2G\	-ti-	2d/	-cti-	.	.	.	2b-/	-ti-
2G\	-o-	2B-/	-o-	2e\	.	.	2g/,<	-o-
=172-	=172-	=172-	=172-	=172-	=172-	=172-	=172-	=172-
!LO:TX:t=P:problem=kreska pseudotaktowa	!	!	!	!	!	!	!	!
1F\	-nem	2c/	-ne(m)	1f\	-nem	.	2a/	-ne(m)
!	!	!	!	!	!	!	!LO:TX:t=P:problem=kreska pseudotaktowa	!
.	.	4B-/	.	.	.	.	2cc\	mor-
.	.	4A/	.	.	.	.	.	.
2r	.	2G/	mor-	2r	.	.	2b-/	-tu-
2F/	re-	2A/	-tu-	2f\	mor-	.	1a/	-o-
=173-	=173-	=173-	=173-	=173-	=173-	=173-	=173-	=173-
2.G\	-ſu-	2B-/	-o-	2d\	-tu-	.	.	.
.	.	2B-/	-ru(m)	2e\	-o-	.	2g/	.
*custos:D	*	*	*	*	*	*	*	*
!LO:TX:t=P:problem=kreska pseudotaktowa	!	!	!	!	!	!	!	!
4F\	-re-	.	.	.	.	.	.	.
!LO:LB:g=original	!	!	!	!	!	!	!LO:TX:t=P:problem=kreska pseudotaktowa	!
2D/	-cti-	1A/	.	2.f\	.	.	1a/,<	-rum
2.F\	-o	.	.	.	.	.	.	.
.	.	.	.	8e\	.	.	.	.
*	*	*	*	*custos:c	*	*	*	*
.	.	.	.	8d\	.	.	.	.
!	!	!	!	!LO:LB:g=original	!	!	!	!
=174-	=174-	=174-	=174-	=174-	=174-	=174-	=174-	=174-
.	.	2r	.	2.c/	.	.	2r	.
4G\	ne(m)	.	.	.	.	.	.	.
4A\	.	2f\	et	.	.	.	2cc\	et
!LO:TX:t=P:problem=kreska pseudotaktowa	!	!	!	!	!	!	!	!
4B-\	.	.	.	4d\	.	.	.	.
2c\	mor-	2e\	vi-	2e\	-rum	.	2cc\	vi-
!	!	!	!	!	!	!	!LO:TX:t=P:problem=kreska pseudotaktowa	!
2A\	.	2c/	-t(am)	1f\	.	.	2cc\	-t(am)
=175-	=175-	=175-	=175-	=175-	=175-	=175-	=175-	=175-
2G\	-tu-	2d\	v(en)-	.	.	.	2b-/	v(en)-
2G\	-o-	2B-/	-tu-	2e\	.	.	2b-/	-tu-
!LO:TX:t=P:problem=kreska pseudotaktowa	!	!	!	!	!	!	!LO:TX:t=P:problem=kreska pseudotaktowa	!
1F\	-ru(m)	0c\	-ri	2f\	.	.	0a/	-ri
.	.	.	.	2c/	.	.	.	.
=176-	=176-	=176-	=176-	=176-	=176-	=176-	=176-	=176-
2r	.	.	.	2r	.	.	.	.
2F\	et	.	.	2f\	et	.	.	.
2.A\	vi-	2r	.	2e\	vi-	.	2r	.
.	.	2c/	Se-	2f\	-ta(m)	.	2a/	ven-
!LO:TX:t=P:problem=kreska pseudotaktowa	!	!	!	!	!	!	!	!
4A\	-t(am)	.	.	.	.	.	.	.
=177-	=177-	=177-	=177-	=177-	=177-	=177-	=177-	=177-
2B-\	ven-	2d\	-cu-	2d\	ven-	.	2f/	-tu-
!	!	!	!	!	!	!	!LO:TX:t=P:problem=kreska pseudotaktowa	!
2G\	-tu-	2B-/	-li	2e\	-tu-	.	2g/	-ri
!LO:TX:t=P:problem=kreska pseudotaktowa	!	!	!	!	!	!	!	!
1F\	-ri	2.c/	.	2f\	.	.	2a/	se-
.	.	.	.	2F/	-ri	.	2.cc\,<	-cu-
.	.	4d\	.	.	.	.	.	.
=178-	=178-	=178-	=178-	=178-	=178-	=178-	=178-	=178-
1C/	Se-	1e\	.	1c\	se-	.	.	.
.	.	.	.	.	.	.	4b-/	.
.	.	.	.	.	.	.	4a/	.
.	.	.	.	.	.	.	4g/	.
2D/	-cu-	2.d\	A-	2.A/	-cu-	.	2f/	.
2.F/	-li	.	.	.	.	.	2.a/,<	.
.	.	4c/	.	4B-/	.	.	.	.
=179-	=179-	=179-	=179-	=179-	=179-	=179-	=179-	=179-
.	.	4A/	.	4c/	-li	.	.	.
4E/	.	4B-/	.	4B-/	.	.	4g/	.
!LO:TX:t=P:problem=kreska pseudotaktowa	!	!	!	!	!	!	!LO:TX:t=P:problem=kreska pseudotaktowa	!
2C/	.	2c/	.	4A/	.	.	2e/	.
.	.	.	.	4G/	.	.	.	.
2D/	A-	2B-/	.	2F/	.	.	2f/	.
2E/	-men	2G/	.	1c\	.	.	2.g/,<	.
=180-	=180-	=180-	=180-	=180-	=180-	=180-	=180-	=180-
2F/	.	2A/	.	.	.	.	.	.
.	.	.	.	.	.	.	4f/	.
!LO:TX:t=P:problem=kreska pseudotaktowa	!	!	!	!	!	!	!	!
2D/	.	2B-/	.	2B-/	.	.	1f/	-li
1C/	.	1G/	.	2.c/	.	.	.	.
.	.	.	.	.	.	.	2e/	A-
.	.	.	.	4B-/	.	.	.	.
=181-	=181-	=181-	=181-	=181-	=181-	=181-	=181-	=181-
[0F\l	.	00F/	-men	2A/	.	.	[0f/;l	-men
.	.	.	.	1d\	A-	.	.	.
.	.	.	.	4c/	.	.	.	.
.	.	.	.	4B-/	.	.	.	.
=182-	=182-	=182-	=182-	=182-	=182-	=182-	=182-	=182-
0F\]	.	.	.	0c\l	-men	.	0f/]	.
==	==	==	==	==	==	==	==	==
*-	*-	*-	*-	*-	*-	*-	*-	*-
!!!system-decoration: [(*)]
!!!RDF**kern: < = below
!!!RDF**kern: l = terminal long
!!!ENC: Berenika Jozajtis
!!!END: 2022-01-04
!!!EED: Andrzej Borzym
!!!EEV: 2022-01-05
